VideoSlicer/Sources/LUTs/FG_CineDrama.cube
#Generated with IWLTBAP LUT Generator
#Website: http://luts.iwltbap.com
TITLE "FG_CineDrama"
#LUT size
LUT_3D_SIZE 9
#LUT data points
0.050980 0.109804 0.090196
0.066667 0.109804 0.094118
0.172549 0.101961 0.094118
0.447059 0.058824 0.086275
0.756863 0.003922 0.054902
0.925490 0.003922 0.047059
1.000000 0.000000 0.094118
1.000000 0.000000 0.188235
0.996078 0.219608 0.290196
0.050980 0.117647 0.094118
0.082353 0.133333 0.094118
0.239216 0.149020 0.078431
0.533333 0.133333 0.054902
0.792157 0.066667 0.019608
0.941176 0.015686 0.031373
1.000000 0.043137 0.105882
0.996078 0.149020 0.200000
1.000000 0.274510 0.305882
0.019608 0.172549 0.090196
0.050980 0.184314 0.090196
0.235294 0.282353 0.039216
0.631373 0.341176 0.000000
0.862745 0.309804 0.000000
0.976471 0.298039 0.047059
1.000000 0.286275 0.164706
1.000000 0.313725 0.254902
1.000000 0.376471 0.352941
0.000000 0.305882 0.070588
0.000000 0.305882 0.070588
0.188235 0.384314 0.003922
0.576471 0.521569 0.000000
0.843137 0.556863 0.003922
0.992157 0.505882 0.129412
0.996078 0.466667 0.250980
0.996078 0.482353 0.341176
1.000000 0.505882 0.411765
0.000000 0.458824 0.000000
0.000000 0.458824 0.007843
0.121569 0.478431 0.003922
0.454902 0.584314 0.000000
0.745098 0.698039 0.000000
0.933333 0.709804 0.164706
0.996078 0.666667 0.329412
0.992157 0.639216 0.450980
1.000000 0.639216 0.498039
0.007843 0.576471 0.007843
0.000000 0.584314 0.000000
0.121569 0.584314 0.003922
0.400000 0.647059 0.047059
0.635294 0.741176 0.117647
0.847059 0.827451 0.223529
1.000000 0.819608 0.384314
1.000000 0.776471 0.498039
1.000000 0.760784 0.588235
0.168627 0.701961 0.098039
0.203922 0.709804 0.105882
0.266667 0.709804 0.121569
0.400000 0.733333 0.164706
0.580392 0.796078 0.227451
0.725490 0.850980 0.321569
0.917647 0.901961 0.411765
0.996078 0.886275 0.560784
0.992157 0.847059 0.631373
0.356863 0.823529 0.250980
0.364706 0.811765 0.262745
0.392157 0.815686 0.266667
0.439216 0.823529 0.286275
0.556863 0.858824 0.349020
0.682353 0.901961 0.419608
0.819608 0.929412 0.494118
0.964706 0.949020 0.568627
1.000000 0.933333 0.682353
0.498039 0.945098 0.466667
0.482353 0.925490 0.462745
0.509804 0.929412 0.474510
0.541176 0.933333 0.486275
0.592157 0.933333 0.513725
0.705882 0.956863 0.568627
0.835294 0.972549 0.619608
0.937255 0.964706 0.690196
1.000000 0.976471 0.733333
0.058824 0.113725 0.113725
0.078431 0.113725 0.109804
0.149020 0.117647 0.117647
0.372549 0.066667 0.129412
0.694118 0.003922 0.125490
0.894118 0.003922 0.152941
0.996078 0.000000 0.203922
0.996078 0.192157 0.290196
0.996078 0.317647 0.364706
0.054902 0.137255 0.109804
0.078431 0.137255 0.117647
0.180392 0.145098 0.117647
0.458824 0.129412 0.121569
0.756863 0.027451 0.133333
0.925490 0.074510 0.164706
1.000000 0.160784 0.223529
1.000000 0.258824 0.305882
1.000000 0.352941 0.380392
0.023529 0.192157 0.113725
0.050980 0.184314 0.117647
0.211765 0.258824 0.101961
0.592157 0.305882 0.098039
0.831373 0.290196 0.145098
0.945098 0.305882 0.200000
1.000000 0.329412 0.262745
1.000000 0.380392 0.337255
1.000000 0.443137 0.427451
0.000000 0.317647 0.090196
0.000000 0.313725 0.098039
0.164706 0.372549 0.090196
0.556863 0.505882 0.000000
0.823529 0.545098 0.129412
0.976471 0.525490 0.278431
0.996078 0.505882 0.349020
1.000000 0.517647 0.415686
1.000000 0.549020 0.474510
0.000000 0.462745 0.070588
0.000000 0.462745 0.070588
0.094118 0.470588 0.082353
0.450980 0.580392 0.066667
0.737255 0.701961 0.101961
0.921569 0.709804 0.286275
1.000000 0.674510 0.415686
1.000000 0.658824 0.509804
0.996078 0.666667 0.556863
0.003922 0.584314 0.082353
0.003922 0.580392 0.094118
0.168627 0.592157 0.105882
0.396078 0.639216 0.133333
0.623529 0.741176 0.215686
0.835294 0.827451 0.301961
0.992157 0.815686 0.450980
1.000000 0.788235 0.545098
1.000000 0.772549 0.623529
0.207843 0.713725 0.149020
0.235294 0.709804 0.164706
0.290196 0.705882 0.172549
0.384314 0.721569 0.192157
0.580392 0.788235 0.278431
0.737255 0.854902 0.368627
0.909804 0.901961 0.458824
1.000000 0.894118 0.592157
1.000000 0.858824 0.662745
0.372549 0.831373 0.282353
0.376471 0.807843 0.278431
0.396078 0.811765 0.286275
0.447059 0.819608 0.301961
0.549020 0.854902 0.368627
0.682353 0.909804 0.439216
0.823529 0.929412 0.517647
0.968627 0.937255 0.603922
1.000000 0.925490 0.698039
0.494118 0.945098 0.478431
0.494118 0.925490 0.482353
0.521569 0.921569 0.482353
0.541176 0.925490 0.498039
0.600000 0.941176 0.529412
0.709804 0.960784 0.580392
0.835294 0.968627 0.631373
0.925490 0.964706 0.690196
0.996078 0.968627 0.752941
0.031373 0.117647 0.160784
0.105882 0.113725 0.172549
0.184314 0.113725 0.176471
0.301961 0.090196 0.184314
0.611765 0.000000 0.235294
0.827451 0.000000 0.270588
0.949020 0.207843 0.337255
0.992157 0.333333 0.403922
0.992157 0.427451 0.486275
0.000000 0.160784 0.168627
0.070588 0.137255 0.176471
0.184314 0.137255 0.192157
0.341176 0.133333 0.203922
0.654902 0.062745 0.243137
0.847059 0.152941 0.294118
0.964706 0.282353 0.356863
0.992157 0.380392 0.431373
1.000000 0.454902 0.490196
0.000000 0.196078 0.152941
0.035294 0.203922 0.168627
0.180392 0.231373 0.192157
0.458824 0.262745 0.235294
0.721569 0.286275 0.278431
0.874510 0.345098 0.341176
0.976471 0.400000 0.400000
1.000000 0.462745 0.454902
1.000000 0.517647 0.517647
0.000000 0.345098 0.149020
0.000000 0.345098 0.180392
0.137255 0.341176 0.180392
0.521569 0.478431 0.227451
0.788235 0.529412 0.341176
0.917647 0.537255 0.423529
1.000000 0.552941 0.470588
1.000000 0.580392 0.517647
1.000000 0.607843 0.568627
0.000000 0.478431 0.176471
0.003922 0.482353 0.188235
0.164706 0.478431 0.192157
0.427451 0.552941 0.227451
0.721569 0.682353 0.301961
0.901961 0.709804 0.439216
1.000000 0.698039 0.533333
1.000000 0.705882 0.600000
1.000000 0.709804 0.635294
0.109804 0.588235 0.200000
0.160784 0.600000 0.207843
0.243137 0.596078 0.215686
0.380392 0.619608 0.243137
0.619608 0.717647 0.321569
0.823529 0.815686 0.419608
0.976471 0.823529 0.552941
1.000000 0.807843 0.639216
1.000000 0.800000 0.694118
0.274510 0.705882 0.247059
0.301961 0.705882 0.247059
0.337255 0.705882 0.254902
0.407843 0.713725 0.274510
0.572549 0.784314 0.349020
0.737255 0.847059 0.443137
0.913725 0.901961 0.537255
0.996078 0.894118 0.662745
1.000000 0.874510 0.725490
0.400000 0.831373 0.341176
0.400000 0.815686 0.329412
0.423529 0.815686 0.337255
0.474510 0.823529 0.360784
0.545098 0.847059 0.400000
0.682353 0.890196 0.482353
0.823529 0.921569 0.560784
0.960784 0.949020 0.647059
1.000000 0.929412 0.749020
0.513725 0.945098 0.501961
0.501961 0.929412 0.494118
0.529412 0.925490 0.517647
0.545098 0.925490 0.513725
0.600000 0.937255 0.549020
0.705882 0.956863 0.607843
0.835294 0.960784 0.658824
0.945098 0.968627 0.717647
1.000000 0.968627 0.776471
0.000000 0.113725 0.309804
0.113725 0.101961 0.309804
0.301961 0.062745 0.333333
0.427451 0.007843 0.321569
0.560784 0.000000 0.321569
0.776471 0.000000 0.352941
0.905882 0.188235 0.411765
1.000000 0.356863 0.486275
0.992157 0.498039 0.552941
0.000000 0.176471 0.317647
0.000000 0.141176 0.329412
0.282353 0.121569 0.341176
0.431373 0.098039 0.329412
0.576471 0.082353 0.337255
0.776471 0.117647 0.380392
0.909804 0.282353 0.431373
1.000000 0.419608 0.490196
1.000000 0.525490 0.584314
0.003922 0.282353 0.290196
0.000000 0.278431 0.294118
0.164706 0.219608 0.325490
0.396078 0.231373 0.317647
0.588235 0.254902 0.345098
0.776471 0.325490 0.407843
0.898039 0.423529 0.462745
1.000000 0.509804 0.533333
1.000000 0.584314 0.592157
0.000000 0.349020 0.262745
0.000000 0.352941 0.262745
0.172549 0.372549 0.298039
0.458824 0.427451 0.376471
0.690196 0.478431 0.447059
0.823529 0.521569 0.498039
0.937255 0.572549 0.552941
1.000000 0.623529 0.600000
1.000000 0.666667 0.647059
0.000000 0.498039 0.250980
0.000000 0.498039 0.278431
0.305882 0.505882 0.345098
0.403922 0.509804 0.349020
0.694118 0.647059 0.450980
0.854902 0.698039 0.560784
0.968627 0.725490 0.643137
1.000000 0.737255 0.674510
1.000000 0.749020 0.709804
0.286275 0.603922 0.341176
0.313725 0.607843 0.345098
0.364706 0.607843 0.345098
0.423529 0.615686 0.356863
0.619608 0.694118 0.435294
0.807843 0.803922 0.541176
0.949020 0.827451 0.654902
1.000000 0.823529 0.729412
1.000000 0.831373 0.768627
0.364706 0.717647 0.364706
0.380392 0.717647 0.360784
0.407843 0.717647 0.360784
0.466667 0.717647 0.368627
0.560784 0.756863 0.415686
0.725490 0.839216 0.525490
0.898039 0.894118 0.631373
0.996078 0.898039 0.737255
1.000000 0.886275 0.792157
0.419608 0.835294 0.403922
0.427451 0.815686 0.400000
0.458824 0.815686 0.403922
0.482353 0.823529 0.415686
0.533333 0.823529 0.435294
0.674510 0.890196 0.533333
0.823529 0.913725 0.631373
0.956863 0.937255 0.709804
1.000000 0.937255 0.807843
0.525490 0.949020 0.545098
0.525490 0.925490 0.537255
0.537255 0.929412 0.545098
0.572549 0.929412 0.564706
0.611765 0.937255 0.584314
0.701961 0.949020 0.623529
0.835294 0.964706 0.694118
0.937255 0.972549 0.764706
1.000000 0.968627 0.815686
0.000000 0.113725 0.490196
0.070588 0.090196 0.482353
0.329412 0.011765 0.482353
0.572549 0.000000 0.498039
0.682353 0.000000 0.490196
0.741176 0.003922 0.454902
0.850980 0.133333 0.462745
0.972549 0.325490 0.525490
0.996078 0.458824 0.588235
0.000000 0.160784 0.490196
0.000000 0.149020 0.490196
0.305882 0.105882 0.509804
0.572549 0.000000 0.505882
0.694118 0.007843 0.490196
0.749020 0.086275 0.458824
0.862745 0.235294 0.494118
0.968627 0.376471 0.545098
1.000000 0.498039 0.603922
0.000000 0.321569 0.439216
0.003922 0.298039 0.458824
0.129412 0.227451 0.478431
0.509804 0.203922 0.498039
0.643137 0.219608 0.462745
0.729412 0.286275 0.474510
0.847059 0.372549 0.509804
0.956863 0.470588 0.572549
1.000000 0.576471 0.631373
0.007843 0.439216 0.427451
0.007843 0.439216 0.435294
0.000000 0.443137 0.447059
0.423529 0.403922 0.498039
0.619608 0.419608 0.486275
0.729412 0.454902 0.505882
0.850980 0.525490 0.564706
0.952941 0.603922 0.619608
1.000000 0.670588 0.694118
0.000000 0.505882 0.388235
0.000000 0.505882 0.403922
0.278431 0.521569 0.423529
0.466667 0.533333 0.462745
0.647059 0.592157 0.541176
0.780392 0.654902 0.607843
0.890196 0.694118 0.666667
0.972549 0.733333 0.713725
1.000000 0.760784 0.741176
0.188235 0.611765 0.376471
0.258824 0.615686 0.384314
0.372549 0.623529 0.415686
0.513725 0.635294 0.474510
0.580392 0.635294 0.494118
0.780392 0.780392 0.631373
0.921569 0.827451 0.733333
0.992157 0.843137 0.792157
1.000000 0.847059 0.811765
0.380392 0.725490 0.435294
0.411765 0.725490 0.447059
0.474510 0.729412 0.470588
0.521569 0.737255 0.482353
0.572549 0.737255 0.490196
0.701961 0.815686 0.588235
0.894118 0.890196 0.709804
0.972549 0.905882 0.803922
1.000000 0.901961 0.843137
0.458824 0.835294 0.486275
0.458824 0.819608 0.478431
0.486275 0.819608 0.486275
0.517647 0.819608 0.498039
0.564706 0.835294 0.517647
0.658824 0.862745 0.572549
0.819608 0.913725 0.670588
0.949020 0.945098 0.772549
0.996078 0.937255 0.847059
0.541176 0.945098 0.596078
0.541176 0.925490 0.592157
0.556863 0.929412 0.600000
0.584314 0.933333 0.603922
0.631373 0.937255 0.631373
0.694118 0.941176 0.654902
0.827451 0.960784 0.725490
0.937255 0.972549 0.803922
0.988235 0.968627 0.850980
0.000000 0.109804 0.631373
0.000000 0.094118 0.627451
0.333333 0.003922 0.623529
0.568627 0.000000 0.627451
0.792157 0.007843 0.647059
0.831373 0.000000 0.603922
0.858824 0.101961 0.560784
0.941176 0.274510 0.580392
1.000000 0.419608 0.631373
0.000000 0.160784 0.639216
0.000000 0.152941 0.647059
0.294118 0.113725 0.639216
0.556863 0.003922 0.627451
0.784314 0.000000 0.654902
0.835294 0.003922 0.611765
0.843137 0.207843 0.572549
0.937255 0.341176 0.592157
1.000000 0.454902 0.647059
0.007843 0.317647 0.580392
0.000000 0.286275 0.588235
0.094118 0.231373 0.592157
0.482353 0.215686 0.603922
0.741176 0.200000 0.635294
0.796078 0.266667 0.600000
0.835294 0.345098 0.572549
0.917647 0.427451 0.600000
1.000000 0.533333 0.650980
0.000000 0.482353 0.560784
0.007843 0.466667 0.564706
0.101961 0.447059 0.584314
0.411765 0.392157 0.603922
0.682353 0.407843 0.619608
0.760784 0.439216 0.600000
0.823529 0.486275 0.607843
0.913725 0.545098 0.639216
1.000000 0.627451 0.694118
0.003922 0.580392 0.549020
0.003922 0.580392 0.549020
0.121569 0.576471 0.556863
0.400000 0.580392 0.580392
0.603922 0.552941 0.623529
0.721569 0.576471 0.615686
0.803922 0.607843 0.643137
0.917647 0.674510 0.694118
1.000000 0.741176 0.749020
0.203922 0.619608 0.501961
0.270588 0.615686 0.517647
0.376471 0.631373 0.513725
0.490196 0.639216 0.549020
0.607843 0.662745 0.603922
0.733333 0.733333 0.686275
0.858824 0.780392 0.745098
0.952941 0.815686 0.800000
1.000000 0.843137 0.827451
0.309804 0.725490 0.474510
0.337255 0.729412 0.486275
0.411765 0.729412 0.498039
0.501961 0.737255 0.533333
0.603922 0.745098 0.596078
0.654902 0.756863 0.611765
0.878431 0.878431 0.768627
0.972549 0.901961 0.847059
0.992157 0.913725 0.886275
0.396078 0.839216 0.517647
0.400000 0.827451 0.509804
0.462745 0.823529 0.537255
0.537255 0.827451 0.580392
0.596078 0.835294 0.603922
0.650980 0.843137 0.623529
0.811765 0.901961 0.729412
0.952941 0.937255 0.831373
0.980392 0.945098 0.886275
0.552941 0.949020 0.650980
0.552941 0.929412 0.647059
0.588235 0.925490 0.670588
0.615686 0.933333 0.670588
0.654902 0.937255 0.686275
0.709804 0.945098 0.709804
0.815686 0.956863 0.760784
0.929412 0.968627 0.835294
0.988235 0.960784 0.890196
0.000000 0.125490 0.764706
0.000000 0.113725 0.764706
0.317647 0.035294 0.768627
0.560784 0.003922 0.749020
0.752941 0.000000 0.756863
0.917647 0.003922 0.780392
0.941176 0.070588 0.725490
0.941176 0.270588 0.678431
0.996078 0.396078 0.686275
0.000000 0.180392 0.776471
0.000000 0.176471 0.784314
0.278431 0.141176 0.776471
0.549020 0.047059 0.756863
0.752941 0.000000 0.772549
0.901961 0.003922 0.776471
0.937255 0.196078 0.737255
0.949020 0.325490 0.686275
0.996078 0.427451 0.698039
0.000000 0.309804 0.713725
0.000000 0.278431 0.717647
0.062745 0.270588 0.725490
0.482353 0.243137 0.749020
0.709804 0.231373 0.737255
0.882353 0.262745 0.776471
0.905882 0.337255 0.717647
0.925490 0.407843 0.674510
0.996078 0.494118 0.701961
0.000000 0.498039 0.705882
0.000000 0.490196 0.694118
0.000000 0.443137 0.709804
0.407843 0.400000 0.729412
0.658824 0.411765 0.737255
0.835294 0.435294 0.760784
0.874510 0.474510 0.721569
0.905882 0.525490 0.701961
1.000000 0.584314 0.733333
0.000000 0.627451 0.666667
0.003922 0.627451 0.678431
0.000000 0.619608 0.682353
0.407843 0.584314 0.713725
0.580392 0.533333 0.729412
0.780392 0.568627 0.760784
0.850980 0.592157 0.733333
0.890196 0.623529 0.713725
0.984314 0.678431 0.764706
0.000000 0.713725 0.674510
0.000000 0.709804 0.666667
0.149020 0.701961 0.670588
0.364706 0.694118 0.686275
0.525490 0.698039 0.709804
0.690196 0.678431 0.745098
0.807843 0.705882 0.741176
0.886275 0.729412 0.764706
0.976471 0.796078 0.807843
0.282353 0.737255 0.615686
0.313725 0.741176 0.615686
0.396078 0.745098 0.627451
0.486275 0.741176 0.647059
0.580392 0.760784 0.658824
0.690196 0.784314 0.729412
0.835294 0.835294 0.803922
0.937255 0.886275 0.854902
0.980392 0.901961 0.898039
0.349020 0.839216 0.572549
0.372549 0.827451 0.572549
0.411765 0.827451 0.576471
0.478431 0.827451 0.607843
0.568627 0.843137 0.647059
0.674510 0.854902 0.713725
0.752941 0.866667 0.749020
0.933333 0.945098 0.878431
0.976471 0.949020 0.909804
0.498039 0.952941 0.666667
0.494118 0.929412 0.650980
0.521569 0.933333 0.670588
0.576471 0.933333 0.694118
0.670588 0.945098 0.741176
0.737255 0.945098 0.772549
0.807843 0.949020 0.800000
0.929412 0.964706 0.882353
0.968627 0.968627 0.921569
0.000000 0.176471 0.909804
0.003922 0.164706 0.909804
0.313725 0.133333 0.894118
0.545098 0.058824 0.874510
0.721569 0.011765 0.878431
0.866667 0.015686 0.874510
1.000000 0.117647 0.878431
0.996078 0.294118 0.827451
0.996078 0.388235 0.764706
0.007843 0.231373 0.925490
0.007843 0.231373 0.917647
0.278431 0.200000 0.894118
0.537255 0.168627 0.882353
0.721569 0.149020 0.882353
0.866667 0.176471 0.878431
0.992157 0.219608 0.878431
0.992157 0.341176 0.827451
0.996078 0.423529 0.772549
0.000000 0.321569 0.850980
0.007843 0.317647 0.854902
0.145098 0.305882 0.858824
0.490196 0.298039 0.866667
0.686275 0.298039 0.866667
0.843137 0.317647 0.870588
1.000000 0.349020 0.882353
0.996078 0.415686 0.823529
1.000000 0.494118 0.784314
0.000000 0.521569 0.831373
0.007843 0.505882 0.854902
0.023529 0.458824 0.850980
0.411765 0.439216 0.854902
0.639216 0.439216 0.843137
0.803922 0.458824 0.866667
0.968627 0.474510 0.866667
0.988235 0.525490 0.823529
1.000000 0.572549 0.788235
0.000000 0.654902 0.811765
0.003922 0.647059 0.815686
0.207843 0.631373 0.815686
0.400000 0.596078 0.835294
0.560784 0.545098 0.843137
0.745098 0.572549 0.866667
0.917647 0.600000 0.878431
0.972549 0.627451 0.831373
0.992157 0.662745 0.803922
0.003922 0.764706 0.803922
0.000000 0.752941 0.792157
0.003922 0.756863 0.800000
0.290196 0.741176 0.811765
0.513725 0.713725 0.835294
0.658824 0.670588 0.847059
0.862745 0.701961 0.866667
0.941176 0.733333 0.850980
0.972549 0.756863 0.839216
0.003922 0.839216 0.792157
0.000000 0.835294 0.796078
0.015686 0.831373 0.800000
0.290196 0.827451 0.796078
0.458824 0.819608 0.807843
0.600000 0.811765 0.819608
0.772549 0.796078 0.850980
0.905882 0.823529 0.858824
0.964706 0.843137 0.866667
0.298039 0.858824 0.721569
0.317647 0.854902 0.721569
0.364706 0.850980 0.717647
0.447059 0.850980 0.733333
0.545098 0.858824 0.745098
0.654902 0.854902 0.780392
0.768627 0.874510 0.815686
0.909804 0.917647 0.898039
0.964706 0.945098 0.933333
0.458824 0.949020 0.721569
0.454902 0.941176 0.705882
0.494118 0.937255 0.709804
0.552941 0.945098 0.741176
0.627451 0.945098 0.768627
0.721569 0.945098 0.807843
0.831373 0.956863 0.866667
0.913725 0.956863 0.901961
0.960784 0.968627 0.949020
0.000000 0.301961 1.000000
0.152941 0.298039 0.992157
0.380392 0.290196 0.988235
0.556863 0.282353 0.980392
0.698039 0.290196 0.976471
0.823529 0.309804 0.968627
0.980392 0.329412 0.964706
1.000000 0.368627 0.945098
1.000000 0.458824 0.905882
0.003922 0.345098 1.000000
0.125490 0.337255 0.996078
0.368627 0.333333 0.988235
0.552941 0.329412 0.976471
0.698039 0.337255 0.976471
0.827451 0.352941 0.968627
0.976471 0.372549 0.968627
1.000000 0.403922 0.949020
1.000000 0.478431 0.905882
0.000000 0.411765 0.952941
0.023529 0.411765 0.949020
0.341176 0.407843 0.956863
0.521569 0.411765 0.956863
0.666667 0.415686 0.956863
0.803922 0.427451 0.952941
0.956863 0.439216 0.968627
1.000000 0.478431 0.945098
0.992157 0.533333 0.901961
0.160784 0.560784 0.952941
0.203922 0.545098 0.956863
0.286275 0.509804 0.952941
0.478431 0.505882 0.952941
0.635294 0.505882 0.949020
0.776471 0.529412 0.956863
0.925490 0.537255 0.960784
1.000000 0.560784 0.952941
1.000000 0.607843 0.921569
0.258824 0.694118 0.941176
0.313725 0.690196 0.929412
0.376471 0.666667 0.945098
0.447059 0.631373 0.945098
0.580392 0.607843 0.960784
0.733333 0.615686 0.952941
0.890196 0.635294 0.956863
0.996078 0.650980 0.949020
1.000000 0.686275 0.925490
0.003922 0.803922 0.929412
0.098039 0.800000 0.925490
0.266667 0.792157 0.921569
0.423529 0.768627 0.945098
0.552941 0.741176 0.937255
0.678431 0.709804 0.960784
0.835294 0.729412 0.945098
0.996078 0.745098 0.952941
0.996078 0.768627 0.925490
0.003922 0.886275 0.925490
0.007843 0.890196 0.929412
0.207843 0.882353 0.929412
0.333333 0.882353 0.917647
0.462745 0.866667 0.925490
0.631373 0.843137 0.945098
0.776471 0.807843 0.949020
0.941176 0.823529 0.956863
1.000000 0.847059 0.921569
0.117647 0.960784 0.921569
0.180392 0.968627 0.929412
0.270588 0.964706 0.925490
0.380392 0.956863 0.925490
0.498039 0.956863 0.925490
0.623529 0.937255 0.925490
0.749020 0.925490 0.937255
0.886275 0.901961 0.949020
0.968627 0.921569 0.937255
0.501961 0.988235 0.878431
0.505882 0.988235 0.874510
0.541176 0.980392 0.886275
0.592157 0.984314 0.874510
0.658824 0.988235 0.894118
0.760784 0.972549 0.909804
0.847059 0.972549 0.929412
0.933333 0.968627 0.956863
0.972549 0.964706 0.968627
