VideoSlicer/Sources/LUTs/FG_CineTeal&Orange2.cube
#Generated with IWLTBAP LUT Generator
#Website: http://luts.iwltbap.com
TITLE "FG_CineTeal&Orange2"
#LUT size
LUT_3D_SIZE 9
#LUT data points
0.109804 0.094118 0.090196
0.125490 0.094118 0.094118
0.243137 0.105882 0.082353
0.403922 0.137255 0.054902
0.615686 0.196078 0.000000
0.835294 0.278431 0.000000
0.956863 0.321569 0.000000
1.000000 0.364706 0.007843
0.996078 0.454902 0.070588
0.215686 0.105882 0.094118
0.141176 0.113725 0.082353
0.227451 0.121569 0.078431
0.345098 0.129412 0.058824
0.537255 0.180392 0.003922
0.776471 0.266667 0.000000
0.925490 0.313725 0.000000
0.996078 0.349020 0.000000
1.000000 0.454902 0.098039
0.270588 0.129412 0.066667
0.176471 0.164706 0.098039
0.250980 0.164706 0.082353
0.388235 0.164706 0.066667
0.611765 0.223529 0.000000
0.807843 0.290196 0.000000
0.929412 0.337255 0.000000
0.996078 0.368627 0.000000
1.000000 0.466667 0.105882
0.262745 0.180392 0.058824
0.172549 0.219608 0.125490
0.270588 0.250980 0.101961
0.427451 0.282353 0.070588
0.615686 0.309804 0.000000
0.756863 0.294118 0.003922
0.886275 0.337255 0.000000
1.000000 0.372549 0.003922
1.000000 0.411765 0.003922
0.360784 0.325490 0.062745
0.196078 0.364706 0.196078
0.317647 0.400000 0.180392
0.509804 0.470588 0.090196
0.686275 0.462745 0.003922
0.811765 0.454902 0.003922
0.925490 0.431373 0.000000
1.000000 0.419608 0.003922
0.992157 0.498039 0.000000
0.243137 0.615686 0.341176
0.247059 0.619608 0.360784
0.360784 0.607843 0.321569
0.529412 0.647059 0.270588
0.725490 0.666667 0.160784
0.878431 0.627451 0.011765
0.968627 0.588235 0.000000
0.996078 0.545098 0.007843
0.996078 0.619608 0.003922
0.674510 0.709804 0.000000
0.317647 0.694118 0.403922
0.360784 0.705882 0.400000
0.513725 0.729412 0.364706
0.686275 0.752941 0.298039
0.847059 0.737255 0.207843
0.972549 0.682353 0.090196
0.996078 0.635294 0.000000
1.000000 0.749020 0.223529
0.886275 0.890196 0.525490
0.619608 0.874510 0.709804
0.662745 0.890196 0.733333
0.749020 0.898039 0.705882
0.866667 0.913725 0.662745
0.980392 0.862745 0.619608
1.000000 0.803922 0.556863
1.000000 0.749020 0.443137
1.000000 0.858824 0.694118
0.819608 0.964706 0.760784
0.768627 0.956863 0.862745
0.788235 0.960784 0.854902
0.827451 0.964706 0.847059
0.894118 0.976471 0.847059
0.960784 0.960784 0.827451
1.000000 0.933333 0.815686
0.992157 0.909804 0.803922
0.992157 0.858824 0.713725
0.113725 0.098039 0.094118
0.109804 0.113725 0.094118
0.164706 0.133333 0.082353
0.266667 0.137255 0.062745
0.372549 0.141176 0.023529
0.556863 0.200000 0.000000
0.768627 0.274510 0.003922
0.925490 0.329412 0.000000
1.000000 0.411765 0.003922
0.184314 0.129412 0.094118
0.101961 0.145098 0.082353
0.149020 0.168627 0.074510
0.235294 0.168627 0.050980
0.337255 0.172549 0.015686
0.450980 0.184314 0.007843
0.682353 0.254902 0.000000
0.858824 0.317647 0.000000
0.972549 0.431373 0.003922
0.274510 0.137255 0.062745
0.156863 0.164706 0.121569
0.227451 0.164706 0.105882
0.349020 0.164706 0.086275
0.541176 0.207843 0.047059
0.756863 0.278431 0.000000
0.901961 0.329412 0.003922
0.996078 0.360784 0.003922
1.000000 0.454902 0.101961
0.262745 0.188235 0.070588
0.160784 0.211765 0.141176
0.219608 0.227451 0.133333
0.352941 0.239216 0.105882
0.513725 0.282353 0.062745
0.701961 0.298039 0.000000
0.858824 0.337255 0.003922
0.976471 0.364706 0.003922
1.000000 0.400000 0.000000
0.341176 0.305882 0.082353
0.203922 0.337255 0.200000
0.290196 0.380392 0.200000
0.486275 0.431373 0.145098
0.647059 0.447059 0.090196
0.780392 0.458824 0.000000
0.913725 0.447059 0.000000
1.000000 0.411765 0.000000
0.996078 0.501961 0.000000
0.243137 0.560784 0.333333
0.243137 0.568627 0.341176
0.337255 0.568627 0.301961
0.517647 0.611765 0.274510
0.705882 0.639216 0.184314
0.858824 0.603922 0.117647
0.952941 0.572549 0.000000
1.000000 0.541176 0.000000
1.000000 0.615686 0.000000
0.658824 0.713725 0.000000
0.298039 0.674510 0.384314
0.352941 0.694118 0.388235
0.482353 0.713725 0.352941
0.670588 0.741176 0.301961
0.835294 0.725490 0.203922
0.956863 0.674510 0.149020
1.000000 0.631373 0.003922
1.000000 0.749020 0.227451
0.905882 0.854902 0.545098
0.650980 0.858824 0.737255
0.694118 0.870588 0.749020
0.792157 0.890196 0.737255
0.913725 0.874510 0.682353
0.996078 0.835294 0.654902
1.000000 0.780392 0.592157
1.000000 0.729412 0.505882
1.000000 0.847059 0.674510
0.843137 0.964706 0.733333
0.768627 0.937255 0.858824
0.788235 0.941176 0.866667
0.839216 0.956863 0.862745
0.909804 0.960784 0.854902
0.976471 0.945098 0.854902
0.996078 0.925490 0.847059
0.996078 0.909804 0.827451
1.000000 0.870588 0.796078
0.086275 0.125490 0.129412
0.098039 0.129412 0.137255
0.180392 0.141176 0.145098
0.262745 0.141176 0.121569
0.372549 0.156863 0.086275
0.580392 0.215686 0.047059
0.796078 0.286275 0.003922
0.941176 0.341176 0.003922
0.996078 0.415686 0.000000
0.215686 0.149020 0.078431
0.137255 0.156863 0.133333
0.160784 0.168627 0.125490
0.254902 0.168627 0.117647
0.349020 0.160784 0.070588
0.490196 0.184314 0.027451
0.725490 0.258824 0.000000
0.886275 0.325490 0.000000
1.000000 0.427451 0.000000
0.278431 0.133333 0.094118
0.156863 0.172549 0.168627
0.203922 0.184314 0.168627
0.325490 0.188235 0.164706
0.513725 0.231373 0.145098
0.733333 0.298039 0.117647
0.901961 0.341176 0.000000
1.000000 0.372549 0.003922
0.996078 0.466667 0.105882
0.266667 0.184314 0.109804
0.188235 0.235294 0.196078
0.207843 0.231373 0.184314
0.329412 0.243137 0.152941
0.490196 0.270588 0.149020
0.662745 0.294118 0.121569
0.843137 0.345098 0.035294
0.980392 0.376471 0.000000
1.000000 0.400000 0.000000
0.364706 0.333333 0.141176
0.235294 0.403922 0.286275
0.274510 0.403922 0.282353
0.478431 0.474510 0.262745
0.662745 0.474510 0.215686
0.803922 0.462745 0.184314
0.921569 0.454902 0.101961
1.000000 0.439216 0.000000
1.000000 0.513725 0.066667
0.274510 0.576471 0.396078
0.278431 0.588235 0.403922
0.325490 0.556863 0.376471
0.470588 0.592157 0.356863
0.682353 0.643137 0.309804
0.823529 0.603922 0.262745
0.925490 0.572549 0.203922
1.000000 0.545098 0.078431
1.000000 0.615686 0.227451
0.674510 0.725490 0.137255
0.337255 0.713725 0.462745
0.364706 0.709804 0.470588
0.478431 0.721569 0.427451
0.650980 0.749020 0.392157
0.835294 0.745098 0.329412
0.949020 0.686275 0.278431
1.000000 0.639216 0.203922
1.000000 0.764706 0.407843
0.839216 0.874510 0.564706
0.627451 0.858824 0.741176
0.647059 0.866667 0.752941
0.717647 0.882353 0.737255
0.839216 0.901961 0.717647
0.956863 0.874510 0.705882
0.996078 0.831373 0.674510
1.000000 0.784314 0.596078
1.000000 0.886275 0.752941
0.807843 0.964706 0.760784
0.756863 0.941176 0.862745
0.768627 0.945098 0.862745
0.807843 0.956863 0.866667
0.866667 0.960784 0.858824
0.941176 0.964706 0.854902
1.000000 0.933333 0.847059
1.000000 0.917647 0.843137
1.000000 0.882353 0.800000
0.027451 0.164706 0.180392
0.058824 0.172549 0.188235
0.137255 0.176471 0.184314
0.215686 0.176471 0.180392
0.337255 0.184314 0.156863
0.525490 0.235294 0.141176
0.741176 0.301961 0.121569
0.917647 0.352941 0.035294
0.996078 0.450980 0.164706
0.223529 0.184314 0.047059
0.105882 0.192157 0.180392
0.141176 0.203922 0.164706
0.203922 0.207843 0.152941
0.329412 0.200000 0.133333
0.474510 0.219608 0.101961
0.686275 0.286275 0.066667
0.882353 0.345098 0.000000
0.992157 0.462745 0.003922
0.258824 0.164706 0.156863
0.098039 0.231373 0.274510
0.164706 0.231373 0.270588
0.360784 0.266667 0.321569
0.521569 0.337255 0.309804
0.749020 0.376471 0.298039
0.921569 0.403922 0.274510
1.000000 0.435294 0.211765
1.000000 0.572549 0.419608
0.239216 0.207843 0.196078
0.149020 0.270588 0.282353
0.203922 0.274510 0.290196
0.313725 0.278431 0.258824
0.462745 0.298039 0.250980
0.647059 0.341176 0.250980
0.831373 0.380392 0.227451
0.956863 0.407843 0.176471
1.000000 0.415686 0.047059
0.349020 0.368627 0.250980
0.215686 0.541176 0.494118
0.345098 0.533333 0.486275
0.415686 0.498039 0.423529
0.647059 0.529412 0.388235
0.788235 0.505882 0.356863
0.929412 0.482353 0.305882
0.992157 0.482353 0.254902
0.996078 0.580392 0.396078
0.321569 0.647059 0.576471
0.341176 0.643137 0.564706
0.415686 0.619608 0.533333
0.423529 0.584314 0.466667
0.611765 0.639216 0.439216
0.788235 0.619608 0.411765
0.905882 0.592157 0.360784
1.000000 0.560784 0.294118
1.000000 0.654902 0.443137
0.647059 0.772549 0.235294
0.458824 0.780392 0.631373
0.454902 0.776471 0.615686
0.482353 0.745098 0.564706
0.623529 0.772549 0.533333
0.823529 0.788235 0.486275
0.941176 0.717647 0.439216
1.000000 0.670588 0.384314
1.000000 0.796078 0.490196
0.827451 0.854902 0.690196
0.725490 0.886275 0.862745
0.745098 0.890196 0.862745
0.745098 0.874510 0.839216
0.843137 0.898039 0.831373
0.945098 0.882353 0.831373
1.000000 0.858824 0.796078
0.996078 0.827451 0.764706
1.000000 0.921569 0.886275
0.811765 0.949020 0.815686
0.823529 0.952941 0.925490
0.819608 0.949020 0.921569
0.815686 0.941176 0.898039
0.874510 0.952941 0.905882
0.949020 0.956863 0.905882
0.980392 0.941176 0.901961
1.000000 0.925490 0.898039
1.000000 0.913725 0.882353
0.000000 0.235294 0.329412
0.003922 0.227451 0.333333
0.000000 0.231373 0.313725
0.196078 0.211765 0.349020
0.403922 0.250980 0.372549
0.600000 0.313725 0.388235
0.733333 0.396078 0.345098
0.905882 0.439216 0.329412
1.000000 0.560784 0.466667
0.239216 0.184314 0.039216
0.003922 0.250980 0.321569
0.000000 0.247059 0.313725
0.196078 0.239216 0.313725
0.345098 0.262745 0.298039
0.509804 0.325490 0.298039
0.713725 0.368627 0.290196
0.894118 0.411765 0.290196
0.976471 0.474510 0.298039
0.278431 0.188235 0.298039
0.000000 0.341176 0.450980
0.003922 0.349020 0.486275
0.329412 0.345098 0.533333
0.631373 0.431373 0.607843
0.796078 0.494118 0.572549
0.886275 0.545098 0.509804
1.000000 0.564706 0.490196
0.996078 0.749020 0.713725
0.215686 0.239216 0.286275
0.000000 0.372549 0.450980
0.101961 0.368627 0.450980
0.282353 0.356863 0.419608
0.462745 0.392157 0.439216
0.619608 0.431373 0.431373
0.792157 0.470588 0.415686
0.945098 0.498039 0.403922
0.996078 0.498039 0.337255
0.333333 0.407843 0.423529
0.047059 0.568627 0.627451
0.239216 0.584314 0.623529
0.423529 0.568627 0.600000
0.568627 0.545098 0.545098
0.729412 0.560784 0.529412
0.890196 0.580392 0.521569
0.996078 0.580392 0.486275
1.000000 0.701961 0.639216
0.247059 0.674510 0.662745
0.258824 0.674510 0.658824
0.376471 0.674510 0.662745
0.474510 0.658824 0.635294
0.521569 0.607843 0.549020
0.717647 0.631373 0.541176
0.854902 0.611765 0.513725
0.968627 0.592157 0.458824
1.000000 0.709804 0.615686
0.576471 0.733333 0.498039
0.537255 0.835294 0.784314
0.556863 0.835294 0.772549
0.600000 0.803922 0.745098
0.584314 0.756863 0.650980
0.780392 0.800000 0.643137
0.905882 0.756863 0.603922
0.992157 0.713725 0.545098
0.996078 0.835294 0.717647
0.721569 0.827451 0.752941
0.713725 0.909804 0.898039
0.737255 0.909804 0.905882
0.772549 0.909804 0.894118
0.776471 0.894118 0.862745
0.898039 0.905882 0.854902
0.968627 0.890196 0.854902
1.000000 0.866667 0.823529
0.996078 0.937255 0.917647
0.780392 0.941176 0.878431
0.819608 0.960784 0.945098
0.823529 0.964706 0.949020
0.831373 0.956863 0.937255
0.835294 0.941176 0.905882
0.909804 0.964706 0.913725
0.960784 0.952941 0.905882
1.000000 0.933333 0.901961
0.996078 0.917647 0.890196
0.000000 0.301961 0.419608
0.000000 0.305882 0.411765
0.000000 0.305882 0.423529
0.000000 0.290196 0.427451
0.298039 0.294118 0.458824
0.552941 0.388235 0.545098
0.721569 0.466667 0.545098
0.847059 0.533333 0.498039
0.960784 0.705882 0.698039
0.192157 0.211765 0.188235
0.007843 0.313725 0.400000
0.007843 0.321569 0.419608
0.000000 0.317647 0.392157
0.254902 0.317647 0.415686
0.509804 0.403922 0.470588
0.666667 0.450980 0.431373
0.843137 0.494118 0.439216
0.890196 0.615686 0.576471
0.203922 0.227451 0.431373
0.000000 0.439216 0.619608
0.000000 0.458824 0.647059
0.180392 0.447059 0.694118
0.533333 0.509804 0.752941
0.784314 0.596078 0.792157
0.898039 0.705882 0.792157
0.949020 0.694118 0.725490
1.000000 0.847059 0.882353
0.145098 0.313725 0.447059
0.000000 0.458824 0.607843
0.000000 0.458824 0.596078
0.168627 0.450980 0.600000
0.470588 0.490196 0.654902
0.698039 0.556863 0.713725
0.823529 0.615686 0.694118
0.878431 0.627451 0.619608
1.000000 0.658824 0.623529
0.250980 0.478431 0.556863
0.007843 0.631373 0.745098
0.003922 0.635294 0.749020
0.301961 0.623529 0.717647
0.505882 0.600000 0.694118
0.713725 0.682353 0.733333
0.807843 0.694118 0.709804
0.937255 0.709804 0.698039
1.000000 0.819608 0.803922
0.003922 0.682353 0.737255
0.000000 0.678431 0.733333
0.223529 0.678431 0.729412
0.392157 0.666667 0.698039
0.505882 0.643137 0.666667
0.600000 0.615686 0.619608
0.776471 0.627451 0.615686
0.917647 0.654902 0.619608
0.992157 0.756863 0.725490
0.509804 0.701961 0.584314
0.447059 0.839216 0.831373
0.482353 0.843137 0.831373
0.564706 0.839216 0.835294
0.639216 0.803922 0.796078
0.654902 0.756863 0.705882
0.831373 0.760784 0.705882
0.929412 0.737255 0.678431
0.964706 0.850980 0.788235
0.733333 0.831373 0.847059
0.647059 0.882353 0.921569
0.682353 0.894118 0.933333
0.721569 0.890196 0.921569
0.784314 0.890196 0.917647
0.843137 0.878431 0.898039
0.925490 0.882353 0.898039
0.976471 0.894118 0.890196
0.988235 0.941176 0.956863
0.831373 0.945098 0.937255
0.792157 0.952941 0.960784
0.796078 0.949020 0.960784
0.823529 0.956863 0.960784
0.858824 0.952941 0.952941
0.870588 0.941176 0.941176
0.941176 0.941176 0.941176
0.976471 0.937255 0.933333
1.000000 0.929412 0.929412
0.003922 0.454902 0.678431
0.003922 0.458824 0.690196
0.000000 0.450980 0.690196
0.007843 0.435294 0.690196
0.282353 0.450980 0.721569
0.600000 0.541176 0.764706
0.800000 0.631373 0.807843
0.882353 0.717647 0.811765
0.956863 0.835294 0.898039
0.078431 0.270588 0.337255
0.000000 0.462745 0.666667
0.003922 0.470588 0.674510
0.003922 0.462745 0.674510
0.290196 0.482353 0.709804
0.584314 0.549020 0.764706
0.788235 0.631373 0.776471
0.862745 0.709804 0.792157
0.886275 0.784314 0.827451
0.000000 0.364706 0.607843
0.003922 0.533333 0.780392
0.000000 0.537255 0.788235
0.000000 0.545098 0.807843
0.435294 0.572549 0.823529
0.721569 0.670588 0.878431
0.878431 0.737255 0.886275
0.929412 0.803922 0.886275
0.976471 0.905882 0.968627
0.000000 0.439216 0.627451
0.000000 0.552941 0.756863
0.000000 0.552941 0.760784
0.000000 0.552941 0.764706
0.427451 0.596078 0.803922
0.666667 0.654902 0.839216
0.831373 0.705882 0.850980
0.882353 0.776471 0.843137
0.945098 0.760784 0.784314
0.007843 0.576471 0.721569
0.000000 0.678431 0.843137
0.003922 0.690196 0.843137
0.160784 0.690196 0.847059
0.466667 0.686275 0.823529
0.709804 0.749020 0.854902
0.847059 0.800000 0.878431
0.921569 0.819608 0.862745
0.988235 0.905882 0.933333
0.000000 0.721569 0.847059
0.003922 0.729412 0.847059
0.000000 0.725490 0.827451
0.274510 0.721569 0.823529
0.423529 0.698039 0.800000
0.552941 0.690196 0.764706
0.756863 0.752941 0.807843
0.847059 0.764706 0.784314
0.913725 0.850980 0.862745
0.541176 0.745098 0.788235
0.360784 0.827451 0.882353
0.384314 0.823529 0.870588
0.474510 0.819608 0.866667
0.576471 0.811765 0.854902
0.647059 0.784314 0.800000
0.721569 0.752941 0.764706
0.870588 0.776471 0.776471
0.898039 0.843137 0.839216
0.662745 0.843137 0.894118
0.584314 0.890196 0.941176
0.611765 0.898039 0.952941
0.674510 0.909804 0.952941
0.733333 0.898039 0.945098
0.780392 0.886275 0.921569
0.886275 0.905882 0.929412
0.929412 0.905882 0.913725
0.960784 0.952941 0.972549
0.796078 0.945098 0.956863
0.768627 0.956863 0.972549
0.784314 0.960784 0.980392
0.796078 0.956863 0.964706
0.823529 0.956863 0.964706
0.862745 0.956863 0.956863
0.898039 0.941176 0.949020
0.952941 0.937255 0.941176
0.984314 0.937255 0.945098
0.003922 0.556863 0.803922
0.003922 0.556863 0.807843
0.000000 0.560784 0.803922
0.000000 0.560784 0.803922
0.262745 0.600000 0.823529
0.556863 0.647059 0.850980
0.776471 0.737255 0.882353
0.878431 0.780392 0.894118
0.945098 0.870588 0.956863
0.003922 0.450980 0.623529
0.000000 0.568627 0.792157
0.003922 0.560784 0.788235
0.000000 0.576471 0.788235
0.003922 0.588235 0.784314
0.509804 0.643137 0.819608
0.733333 0.717647 0.862745
0.847059 0.768627 0.866667
0.894118 0.858824 0.933333
0.000000 0.509804 0.776471
0.007843 0.615686 0.874510
0.000000 0.623529 0.882353
0.000000 0.643137 0.890196
0.462745 0.694118 0.913725
0.666667 0.729412 0.921569
0.823529 0.792157 0.937255
0.917647 0.839216 0.937255
0.952941 0.917647 1.000000
0.007843 0.545098 0.780392
0.000000 0.635294 0.866667
0.003922 0.650980 0.870588
0.003922 0.650980 0.870588
0.431373 0.694118 0.898039
0.647059 0.733333 0.917647
0.811765 0.796078 0.925490
0.901961 0.831373 0.925490
0.937255 0.850980 0.909804
0.003922 0.639216 0.819608
0.000000 0.713725 0.917647
0.000000 0.709804 0.901961
0.000000 0.721569 0.901961
0.427451 0.729412 0.894118
0.682353 0.784314 0.921569
0.827451 0.831373 0.941176
0.913725 0.862745 0.933333
0.956863 0.913725 0.968627
0.000000 0.756863 0.917647
0.003922 0.760784 0.913725
0.003922 0.764706 0.905882
0.172549 0.752941 0.894118
0.380392 0.756863 0.882353
0.568627 0.752941 0.862745
0.768627 0.811765 0.898039
0.878431 0.847059 0.905882
0.929412 0.917647 0.960784
0.466667 0.784314 0.850980
0.274510 0.835294 0.929412
0.321569 0.839216 0.929412
0.427451 0.823529 0.925490
0.521569 0.827451 0.905882
0.611765 0.811765 0.886275
0.713725 0.803922 0.862745
0.862745 0.862745 0.909804
0.901961 0.913725 0.949020
0.647059 0.862745 0.941176
0.572549 0.901961 0.996078
0.596078 0.901961 0.988235
0.647059 0.901961 0.988235
0.698039 0.898039 0.964706
0.768627 0.898039 0.964706
0.890196 0.921569 0.964706
0.941176 0.937255 0.960784
0.949020 0.952941 0.972549
0.780392 0.949020 0.984314
0.749020 0.952941 0.996078
0.764706 0.960784 0.996078
0.780392 0.964706 1.000000
0.823529 0.956863 0.992157
0.850980 0.945098 0.976471
0.886275 0.937255 0.968627
0.952941 0.956863 0.976471
0.956863 0.960784 0.976471
0.003922 0.643137 0.905882
0.003922 0.650980 0.909804
0.000000 0.654902 0.901961
0.141176 0.690196 0.913725
0.505882 0.741176 0.929412
0.682353 0.792157 0.945098
0.788235 0.823529 0.945098
0.886275 0.866667 0.952941
0.937255 0.921569 0.988235
0.003922 0.580392 0.784314
0.000000 0.643137 0.890196
0.000000 0.650980 0.886275
0.003922 0.678431 0.898039
0.462745 0.729412 0.913725
0.670588 0.788235 0.929412
0.776471 0.819608 0.929412
0.878431 0.866667 0.941176
0.894118 0.905882 0.980392
0.168627 0.654902 0.890196
0.003922 0.698039 0.949020
0.000000 0.709804 0.956863
0.250980 0.737255 0.968627
0.552941 0.780392 0.956863
0.717647 0.819608 0.956863
0.815686 0.843137 0.956863
0.898039 0.878431 0.964706
0.913725 0.925490 0.992157
0.003922 0.647059 0.878431
0.000000 0.705882 0.945098
0.000000 0.717647 0.945098
0.090196 0.745098 0.956863
0.517647 0.788235 0.956863
0.709804 0.827451 0.960784
0.796078 0.850980 0.956863
0.894118 0.882353 0.956863
0.956863 0.901961 0.960784
0.003922 0.662745 0.874510
0.000000 0.721569 0.949020
0.000000 0.729412 0.949020
0.003922 0.756863 0.949020
0.462745 0.788235 0.952941
0.701961 0.847059 0.960784
0.807843 0.862745 0.968627
0.913725 0.901961 0.968627
0.937255 0.933333 0.988235
0.000000 0.768627 0.956863
0.003922 0.772549 0.952941
0.000000 0.768627 0.949020
0.011765 0.772549 0.941176
0.325490 0.788235 0.925490
0.592157 0.831373 0.941176
0.792157 0.874510 0.949020
0.890196 0.901961 0.960784
0.921569 0.937255 0.984314
0.364706 0.807843 0.925490
0.000000 0.831373 0.956863
0.000000 0.831373 0.956863
0.270588 0.839216 0.952941
0.427451 0.839216 0.952941
0.552941 0.843137 0.941176
0.713725 0.854902 0.941176
0.878431 0.901961 0.949020
0.890196 0.941176 0.976471
0.568627 0.874510 0.952941
0.435294 0.905882 0.992157
0.466667 0.905882 0.992157
0.541176 0.913725 0.992157
0.623529 0.917647 0.992157
0.694118 0.917647 0.976471
0.768627 0.909804 0.972549
0.870588 0.921569 0.956863
0.901961 0.952941 0.984314
0.650980 0.937255 0.964706
0.619608 0.960784 0.996078
0.635294 0.960784 0.984314
0.670588 0.964706 0.988235
0.729412 0.960784 0.984314
0.784314 0.952941 0.976471
0.862745 0.952941 0.972549
0.909804 0.964706 0.968627
0.945098 0.964706 0.976471
