VideoSlicer/Sources/LUTs/FG_CineDrama.cube
#Generated with IWLTBAP LUT Generator
#Website: http://luts.iwltbap.com
TITLE "FG_CineDrama"
#LUT size
LUT_3D_SIZE 25
#LUT data points
0.050980 0.109804 0.090196
0.050980 0.109804 0.090196
0.062745 0.109804 0.094118
0.066667 0.109804 0.094118
0.090196 0.109804 0.094118
0.121569 0.105882 0.094118
0.172549 0.101961 0.094118
0.239216 0.101961 0.094118
0.329412 0.090196 0.082353
0.447059 0.058824 0.086275
0.560784 0.000000 0.070588
0.662745 0.000000 0.058824
0.756863 0.003922 0.054902
0.819608 0.000000 0.050980
0.870588 0.003922 0.043137
0.925490 0.003922 0.047059
0.964706 0.000000 0.062745
0.996078 0.000000 0.070588
1.000000 0.000000 0.094118
1.000000 0.003922 0.117647
0.996078 0.003922 0.149020
1.000000 0.000000 0.188235
0.996078 0.086275 0.211765
0.996078 0.160784 0.250980
0.996078 0.219608 0.290196
0.050980 0.109804 0.090196
0.047059 0.113725 0.090196
0.062745 0.109804 0.094118
0.070588 0.113725 0.098039
0.094118 0.113725 0.098039
0.133333 0.113725 0.098039
0.184314 0.117647 0.090196
0.258824 0.113725 0.090196
0.352941 0.105882 0.086275
0.466667 0.074510 0.082353
0.584314 0.011765 0.054902
0.682353 0.000000 0.058824
0.772549 0.003922 0.050980
0.831373 0.003922 0.039216
0.882353 0.000000 0.035294
0.925490 0.003922 0.047059
0.964706 0.000000 0.058824
0.996078 0.000000 0.070588
0.996078 0.003922 0.094118
1.000000 0.000000 0.125490
0.996078 0.000000 0.164706
0.996078 0.023529 0.188235
0.996078 0.117647 0.223529
0.996078 0.176471 0.262745
1.000000 0.231373 0.294118
0.050980 0.109804 0.090196
0.054902 0.113725 0.094118
0.066667 0.113725 0.098039
0.074510 0.117647 0.094118
0.105882 0.113725 0.094118
0.149020 0.121569 0.090196
0.211765 0.121569 0.090196
0.282353 0.125490 0.086275
0.384314 0.117647 0.082353
0.494118 0.101961 0.070588
0.607843 0.062745 0.050980
0.701961 0.000000 0.047059
0.772549 0.000000 0.035294
0.831373 0.003922 0.031373
0.890196 0.000000 0.035294
0.929412 0.000000 0.039216
0.964706 0.000000 0.050980
0.992157 0.003922 0.070588
0.996078 0.000000 0.101961
1.000000 0.000000 0.125490
0.996078 0.019608 0.156863
0.996078 0.098039 0.196078
1.000000 0.149020 0.223529
1.000000 0.200000 0.266667
1.000000 0.247059 0.305882
0.050980 0.117647 0.094118
0.058824 0.117647 0.098039
0.058824 0.117647 0.090196
0.082353 0.133333 0.094118
0.105882 0.137255 0.086275
0.164706 0.141176 0.086275
0.239216 0.149020 0.078431
0.329412 0.152941 0.078431
0.423529 0.145098 0.066667
0.533333 0.133333 0.054902
0.639216 0.121569 0.043137
0.725490 0.094118 0.031373
0.792157 0.066667 0.019608
0.847059 0.039216 0.019608
0.894118 0.027451 0.023529
0.941176 0.015686 0.031373
0.976471 0.015686 0.054902
0.996078 0.027451 0.078431
1.000000 0.043137 0.105882
1.000000 0.070588 0.133333
1.000000 0.113725 0.176471
0.996078 0.149020 0.200000
1.000000 0.192157 0.239216
1.000000 0.235294 0.270588
1.000000 0.274510 0.305882
0.043137 0.125490 0.090196
0.047059 0.129412 0.094118
0.054902 0.133333 0.090196
0.070588 0.141176 0.094118
0.101961 0.160784 0.086275
0.160784 0.176471 0.082353
0.243137 0.188235 0.074510
0.356863 0.200000 0.062745
0.490196 0.196078 0.043137
0.592157 0.188235 0.027451
0.682353 0.184314 0.015686
0.749020 0.164706 0.007843
0.819608 0.156863 0.003922
0.870588 0.149020 0.007843
0.905882 0.145098 0.007843
0.949020 0.137255 0.035294
0.976471 0.141176 0.054902
1.000000 0.137255 0.082353
1.000000 0.145098 0.117647
1.000000 0.156863 0.152941
1.000000 0.176471 0.180392
0.996078 0.207843 0.211765
1.000000 0.239216 0.250980
1.000000 0.270588 0.290196
0.996078 0.305882 0.317647
0.039216 0.149020 0.094118
0.039216 0.149020 0.094118
0.043137 0.149020 0.090196
0.062745 0.160784 0.086275
0.094118 0.180392 0.090196
0.152941 0.207843 0.078431
0.250980 0.243137 0.054902
0.360784 0.258824 0.031373
0.498039 0.274510 0.011765
0.627451 0.262745 0.000000
0.717647 0.243137 0.000000
0.780392 0.243137 0.000000
0.839216 0.235294 0.000000
0.878431 0.227451 0.000000
0.921569 0.223529 0.000000
0.960784 0.227451 0.035294
0.992157 0.211765 0.058824
1.000000 0.211765 0.109804
1.000000 0.215686 0.133333
0.992157 0.231373 0.160784
1.000000 0.243137 0.203922
0.996078 0.254902 0.231373
1.000000 0.282353 0.262745
0.996078 0.309804 0.298039
0.996078 0.341176 0.337255
0.019608 0.172549 0.090196
0.031373 0.168627 0.090196
0.035294 0.172549 0.086275
0.050980 0.184314 0.090196
0.078431 0.200000 0.078431
0.137255 0.235294 0.070588
0.235294 0.282353 0.039216
0.364706 0.317647 0.000000
0.505882 0.345098 0.000000
0.631373 0.341176 0.000000
0.721569 0.341176 0.000000
0.803922 0.317647 0.000000
0.862745 0.309804 0.000000
0.901961 0.301961 0.003922
0.937255 0.294118 0.011765
0.976471 0.298039 0.047059
1.000000 0.286275 0.082353
1.000000 0.282353 0.117647
1.000000 0.286275 0.164706
1.000000 0.290196 0.184314
0.996078 0.298039 0.227451
1.000000 0.313725 0.254902
0.996078 0.333333 0.282353
1.000000 0.356863 0.321569
1.000000 0.376471 0.352941
0.000000 0.203922 0.082353
0.000000 0.207843 0.086275
0.011765 0.211765 0.090196
0.023529 0.215686 0.090196
0.062745 0.239216 0.078431
0.133333 0.266667 0.066667
0.211765 0.313725 0.035294
0.349020 0.360784 0.003922
0.498039 0.400000 0.000000
0.627451 0.419608 0.003922
0.721569 0.415686 0.000000
0.792157 0.411765 0.000000
0.862745 0.396078 0.000000
0.925490 0.384314 0.000000
0.956863 0.364706 0.015686
0.996078 0.360784 0.074510
0.996078 0.345098 0.109804
1.000000 0.349020 0.145098
1.000000 0.345098 0.180392
1.000000 0.349020 0.215686
0.996078 0.356863 0.250980
1.000000 0.372549 0.278431
1.000000 0.392157 0.313725
1.000000 0.400000 0.349020
1.000000 0.415686 0.368627
0.000000 0.254902 0.074510
0.000000 0.250980 0.078431
0.000000 0.254902 0.074510
0.000000 0.254902 0.066667
0.027451 0.270588 0.070588
0.109804 0.305882 0.050980
0.207843 0.345098 0.015686
0.325490 0.396078 0.003922
0.470588 0.447059 0.007843
0.603922 0.482353 0.000000
0.705882 0.486275 0.003922
0.788235 0.494118 0.003922
0.850980 0.482353 0.000000
0.905882 0.466667 0.003922
0.956863 0.447059 0.031373
1.000000 0.423529 0.109804
1.000000 0.419608 0.145098
1.000000 0.411765 0.184314
0.996078 0.411765 0.215686
0.996078 0.411765 0.247059
1.000000 0.419608 0.278431
1.000000 0.423529 0.313725
0.996078 0.435294 0.333333
1.000000 0.450980 0.368627
1.000000 0.462745 0.400000
0.000000 0.305882 0.070588
0.000000 0.301961 0.066667
0.000000 0.301961 0.066667
0.000000 0.305882 0.070588
0.000000 0.313725 0.058824
0.078431 0.337255 0.039216
0.188235 0.384314 0.003922
0.298039 0.431373 0.000000
0.443137 0.478431 0.011765
0.576471 0.521569 0.000000
0.690196 0.552941 0.000000
0.768627 0.564706 0.000000
0.843137 0.556863 0.003922
0.882353 0.545098 0.007843
0.937255 0.529412 0.007843
0.992157 0.505882 0.129412
1.000000 0.486275 0.180392
1.000000 0.478431 0.219608
0.996078 0.466667 0.250980
0.996078 0.470588 0.286275
1.000000 0.478431 0.317647
0.996078 0.482353 0.341176
1.000000 0.486275 0.368627
1.000000 0.494118 0.400000
1.000000 0.505882 0.411765
0.000000 0.356863 0.047059
0.000000 0.360784 0.043137
0.000000 0.356863 0.043137
0.000000 0.356863 0.047059
0.000000 0.356863 0.047059
0.035294 0.380392 0.039216
0.160784 0.419608 0.000000
0.282353 0.458824 0.000000
0.411765 0.501961 0.000000
0.533333 0.545098 0.000000
0.650980 0.588235 0.003922
0.733333 0.615686 0.000000
0.819608 0.631373 0.003922
0.866667 0.615686 0.000000
0.925490 0.603922 0.031373
0.972549 0.580392 0.133333
0.996078 0.564706 0.184314
1.000000 0.545098 0.243137
1.000000 0.537255 0.298039
1.000000 0.533333 0.329412
1.000000 0.529412 0.352941
1.000000 0.537255 0.388235
0.996078 0.533333 0.392157
1.000000 0.541176 0.431373
1.000000 0.549020 0.450980
0.000000 0.403922 0.015686
0.003922 0.411765 0.031373
0.000000 0.407843 0.035294
0.003922 0.411765 0.031373
0.007843 0.403922 0.027451
0.000000 0.415686 0.015686
0.141176 0.447059 0.000000
0.266667 0.486275 0.000000
0.372549 0.529412 0.000000
0.494118 0.564706 0.000000
0.611765 0.607843 0.003922
0.698039 0.647059 0.000000
0.776471 0.674510 0.000000
0.862745 0.682353 0.000000
0.901961 0.666667 0.039216
0.952941 0.650980 0.145098
0.996078 0.635294 0.215686
1.000000 0.611765 0.266667
0.996078 0.607843 0.313725
0.996078 0.588235 0.341176
1.000000 0.584314 0.396078
1.000000 0.588235 0.423529
0.996078 0.584314 0.427451
1.000000 0.588235 0.466667
1.000000 0.600000 0.482353
0.000000 0.458824 0.000000
0.000000 0.454902 0.003922
0.000000 0.458824 0.007843
0.000000 0.458824 0.007843
0.003922 0.454902 0.000000
0.000000 0.458824 0.007843
0.121569 0.478431 0.003922
0.239216 0.513725 0.000000
0.345098 0.552941 0.003922
0.454902 0.584314 0.000000
0.568627 0.623529 0.000000
0.658824 0.666667 0.000000
0.745098 0.698039 0.000000
0.819608 0.725490 0.003922
0.882353 0.729412 0.074510
0.933333 0.709804 0.164706
0.988235 0.694118 0.227451
1.000000 0.674510 0.298039
0.996078 0.666667 0.329412
1.000000 0.658824 0.380392
1.000000 0.643137 0.400000
0.992157 0.639216 0.450980
1.000000 0.631373 0.474510
1.000000 0.631373 0.490196
1.000000 0.639216 0.498039
0.003922 0.498039 0.003922
0.007843 0.494118 0.003922
0.000000 0.501961 0.003922
0.000000 0.505882 0.003922
0.000000 0.501961 0.000000
0.000000 0.498039 0.007843
0.094118 0.505882 0.000000
0.219608 0.541176 0.000000
0.337255 0.568627 0.000000
0.443137 0.603922 0.000000
0.537255 0.643137 0.000000
0.615686 0.682353 0.000000
0.694118 0.725490 0.007843
0.776471 0.749020 0.000000
0.858824 0.764706 0.035294
0.917647 0.768627 0.192157
0.960784 0.749020 0.254902
1.000000 0.745098 0.313725
1.000000 0.721569 0.368627
1.000000 0.705882 0.388235
1.000000 0.698039 0.431373
1.000000 0.682353 0.462745
1.000000 0.678431 0.490196
0.992157 0.682353 0.525490
1.000000 0.682353 0.549020
0.000000 0.537255 0.000000
0.000000 0.541176 0.000000
0.003922 0.545098 0.000000
0.000000 0.541176 0.000000
0.000000 0.541176 0.000000
0.003922 0.541176 0.000000
0.094118 0.541176 0.003922
0.211765 0.560784 0.000000
0.305882 0.592157 0.000000
0.423529 0.627451 0.000000
0.509804 0.654902 0.000000
0.588235 0.698039 0.000000
0.662745 0.729412 0.031373
0.741176 0.756863 0.074510
0.811765 0.800000 0.121569
0.882353 0.807843 0.172549
0.945098 0.803922 0.270588
0.988235 0.788235 0.329412
1.000000 0.776471 0.372549
1.000000 0.760784 0.415686
1.000000 0.745098 0.454902
1.000000 0.737255 0.490196
1.000000 0.733333 0.509804
1.000000 0.725490 0.533333
1.000000 0.717647 0.568627
0.007843 0.576471 0.007843
0.011765 0.580392 0.003922
0.000000 0.580392 0.000000
0.000000 0.584314 0.000000
0.003922 0.592157 0.007843
0.074510 0.584314 0.003922
0.121569 0.584314 0.003922
0.203922 0.592157 0.027451
0.305882 0.619608 0.027451
0.400000 0.647059 0.047059
0.501961 0.682353 0.062745
0.568627 0.709804 0.090196
0.635294 0.741176 0.117647
0.694118 0.780392 0.152941
0.760784 0.803922 0.184314
0.847059 0.827451 0.223529
0.909804 0.843137 0.258824
0.968627 0.827451 0.349020
1.000000 0.819608 0.384314
1.000000 0.803922 0.431373
1.000000 0.784314 0.470588
1.000000 0.776471 0.498039
0.992157 0.772549 0.541176
0.996078 0.752941 0.552941
1.000000 0.760784 0.588235
0.003922 0.627451 0.019608
0.000000 0.623529 0.015686
0.000000 0.627451 0.019608
0.035294 0.619608 0.015686
0.098039 0.623529 0.031373
0.133333 0.619608 0.031373
0.176471 0.623529 0.047059
0.215686 0.627451 0.054902
0.309804 0.643137 0.074510
0.388235 0.674510 0.082353
0.462745 0.698039 0.101961
0.545098 0.737255 0.137255
0.607843 0.760784 0.160784
0.670588 0.788235 0.200000
0.741176 0.811765 0.231373
0.796078 0.831373 0.262745
0.870588 0.862745 0.294118
0.937255 0.870588 0.321569
0.984314 0.858824 0.392157
1.000000 0.847059 0.462745
0.996078 0.823529 0.482353
1.000000 0.815686 0.533333
1.000000 0.807843 0.549020
1.000000 0.796078 0.572549
1.000000 0.788235 0.600000
0.074510 0.658824 0.054902
0.101961 0.662745 0.058824
0.101961 0.666667 0.050980
0.133333 0.662745 0.058824
0.164706 0.670588 0.074510
0.200000 0.670588 0.078431
0.231373 0.658824 0.082353
0.258824 0.674510 0.086275
0.305882 0.662745 0.105882
0.392157 0.705882 0.121569
0.466667 0.717647 0.137255
0.525490 0.752941 0.176471
0.588235 0.776471 0.203922
0.639216 0.803922 0.231373
0.709804 0.823529 0.258824
0.756863 0.847059 0.298039
0.823529 0.866667 0.325490
0.894118 0.886275 0.360784
0.964706 0.890196 0.380392
0.996078 0.874510 0.450980
1.000000 0.866667 0.517647
1.000000 0.858824 0.541176
1.000000 0.843137 0.560784
1.000000 0.827451 0.603922
0.996078 0.827451 0.619608
0.168627 0.701961 0.098039
0.176471 0.705882 0.101961
0.188235 0.709804 0.101961
0.203922 0.709804 0.105882
0.219608 0.717647 0.109804
0.243137 0.705882 0.125490
0.266667 0.709804 0.121569
0.298039 0.705882 0.129412
0.309804 0.709804 0.137255
0.400000 0.733333 0.164706
0.450980 0.745098 0.176471
0.525490 0.764706 0.207843
0.580392 0.796078 0.227451
0.627451 0.819608 0.266667
0.674510 0.843137 0.290196
0.725490 0.850980 0.321569
0.792157 0.878431 0.352941
0.850980 0.886275 0.388235
0.917647 0.901961 0.411765
0.972549 0.913725 0.447059
1.000000 0.894118 0.505882
0.996078 0.886275 0.560784
1.000000 0.874510 0.588235
1.000000 0.862745 0.619608
0.992157 0.847059 0.631373
0.247059 0.752941 0.149020
0.239216 0.745098 0.149020
0.250980 0.745098 0.145098
0.266667 0.749020 0.152941
0.278431 0.749020 0.164706
0.298039 0.745098 0.160784
0.317647 0.745098 0.168627
0.333333 0.745098 0.168627
0.364706 0.752941 0.188235
0.392157 0.756863 0.196078
0.454902 0.776471 0.211765
0.505882 0.796078 0.243137
0.572549 0.819608 0.270588
0.600000 0.835294 0.301961
0.662745 0.862745 0.325490
0.713725 0.870588 0.352941
0.764706 0.894118 0.384314
0.827451 0.901961 0.411765
0.882353 0.913725 0.439216
0.933333 0.921569 0.470588
0.992157 0.917647 0.505882
1.000000 0.909804 0.556863
1.000000 0.901961 0.607843
1.000000 0.890196 0.635294
1.000000 0.878431 0.654902
0.290196 0.768627 0.192157
0.286275 0.772549 0.192157
0.305882 0.776471 0.192157
0.317647 0.768627 0.200000
0.325490 0.768627 0.203922
0.337255 0.772549 0.219608
0.352941 0.772549 0.215686
0.372549 0.776471 0.223529
0.388235 0.776471 0.219608
0.415686 0.788235 0.227451
0.454902 0.800000 0.258824
0.513725 0.819608 0.278431
0.552941 0.835294 0.305882
0.600000 0.847059 0.329412
0.650980 0.866667 0.356863
0.678431 0.886275 0.368627
0.745098 0.901961 0.415686
0.792157 0.905882 0.435294
0.850980 0.917647 0.478431
0.894118 0.925490 0.490196
0.956863 0.929412 0.521569
1.000000 0.941176 0.552941
1.000000 0.917647 0.584314
1.000000 0.909804 0.643137
1.000000 0.901961 0.674510
0.356863 0.823529 0.250980
0.352941 0.819608 0.254902
0.364706 0.807843 0.250980
0.364706 0.811765 0.262745
0.372549 0.815686 0.258824
0.380392 0.815686 0.262745
0.392157 0.815686 0.266667
0.403922 0.811765 0.266667
0.423529 0.819608 0.278431
0.439216 0.823529 0.286275
0.478431 0.831373 0.305882
0.513725 0.839216 0.321569
0.556863 0.858824 0.349020
0.600000 0.870588 0.364706
0.627451 0.890196 0.384314
0.682353 0.901961 0.419608
0.721569 0.905882 0.447059
0.784314 0.917647 0.474510
0.819608 0.929412 0.494118
0.878431 0.929412 0.513725
0.917647 0.945098 0.541176
0.964706 0.949020 0.568627
1.000000 0.945098 0.596078
1.000000 0.929412 0.631373
1.000000 0.933333 0.682353
0.400000 0.874510 0.317647
0.400000 0.854902 0.317647
0.411765 0.850980 0.317647
0.411765 0.858824 0.313725
0.415686 0.854902 0.321569
0.411765 0.850980 0.317647
0.419608 0.858824 0.325490
0.439216 0.850980 0.337255
0.454902 0.858824 0.337255
0.462745 0.850980 0.345098
0.486275 0.866667 0.360784
0.517647 0.874510 0.368627
0.556863 0.890196 0.392157
0.584314 0.898039 0.407843
0.631373 0.909804 0.431373
0.678431 0.913725 0.458824
0.721569 0.929412 0.482353
0.780392 0.933333 0.505882
0.811765 0.941176 0.533333
0.858824 0.945098 0.549020
0.898039 0.952941 0.572549
0.937255 0.949020 0.600000
0.976471 0.952941 0.623529
0.992157 0.960784 0.643137
1.000000 0.941176 0.678431
0.447059 0.917647 0.396078
0.443137 0.894118 0.388235
0.443137 0.894118 0.380392
0.439216 0.890196 0.384314
0.447059 0.886275 0.384314
0.454902 0.898039 0.384314
0.462745 0.894118 0.396078
0.470588 0.894118 0.407843
0.494118 0.894118 0.403922
0.501961 0.894118 0.407843
0.513725 0.905882 0.419608
0.525490 0.898039 0.419608
0.564706 0.913725 0.450980
0.603922 0.921569 0.458824
0.639216 0.929412 0.478431
0.682353 0.941176 0.509804
0.721569 0.941176 0.521569
0.772549 0.956863 0.549020
0.811765 0.952941 0.568627
0.862745 0.956863 0.588235
0.886275 0.960784 0.611765
0.925490 0.964706 0.623529
0.964706 0.956863 0.654902
0.980392 0.964706 0.674510
1.000000 0.964706 0.694118
0.498039 0.945098 0.466667
0.490196 0.933333 0.470588
0.494118 0.929412 0.458824
0.482353 0.925490 0.462745
0.498039 0.925490 0.454902
0.505882 0.925490 0.462745
0.509804 0.929412 0.474510
0.521569 0.929412 0.478431
0.525490 0.929412 0.470588
0.541176 0.933333 0.486275
0.552941 0.929412 0.490196
0.568627 0.937255 0.498039
0.592157 0.933333 0.513725
0.639216 0.941176 0.533333
0.666667 0.949020 0.556863
0.705882 0.956863 0.568627
0.756863 0.956863 0.584314
0.780392 0.964706 0.596078
0.835294 0.972549 0.619608
0.870588 0.968627 0.639216
0.901961 0.968627 0.654902
0.937255 0.964706 0.690196
0.968627 0.972549 0.698039
0.996078 0.964706 0.713725
1.000000 0.976471 0.733333
0.054902 0.113725 0.094118
0.054902 0.113725 0.101961
0.058824 0.117647 0.098039
0.070588 0.109804 0.105882
0.090196 0.113725 0.098039
0.117647 0.113725 0.098039
0.160784 0.105882 0.101961
0.227451 0.105882 0.098039
0.321569 0.090196 0.098039
0.423529 0.058824 0.094118
0.545098 0.000000 0.082353
0.654902 0.000000 0.070588
0.741176 0.003922 0.070588
0.823529 0.007843 0.078431
0.874510 0.000000 0.074510
0.929412 0.000000 0.086275
0.960784 0.000000 0.090196
1.000000 0.003922 0.113725
1.000000 0.000000 0.125490
0.996078 0.000000 0.164706
1.000000 0.003922 0.184314
0.996078 0.054902 0.215686
0.996078 0.133333 0.243137
0.996078 0.192157 0.274510
1.000000 0.247059 0.309804
0.058824 0.117647 0.105882
0.050980 0.117647 0.094118
0.070588 0.117647 0.101961
0.078431 0.121569 0.105882
0.098039 0.117647 0.101961
0.125490 0.113725 0.094118
0.176471 0.117647 0.098039
0.250980 0.113725 0.105882
0.341176 0.098039 0.101961
0.447059 0.070588 0.086275
0.556863 0.003922 0.090196
0.674510 0.007843 0.082353
0.756863 0.000000 0.074510
0.827451 0.003922 0.070588
0.890196 0.003922 0.066667
0.929412 0.000000 0.078431
0.976471 0.007843 0.090196
0.988235 0.003922 0.109804
1.000000 0.000000 0.133333
0.996078 0.003922 0.156863
0.996078 0.003922 0.188235
0.996078 0.098039 0.219608
0.996078 0.160784 0.250980
1.000000 0.211765 0.282353
1.000000 0.254902 0.317647
0.058824 0.121569 0.109804
0.058824 0.117647 0.098039
0.062745 0.121569 0.101961
0.070588 0.121569 0.094118
0.105882 0.125490 0.101961
0.145098 0.125490 0.101961
0.207843 0.125490 0.105882
0.274510 0.129412 0.098039
0.380392 0.117647 0.094118
0.482353 0.109804 0.094118
0.600000 0.058824 0.078431
0.686275 0.003922 0.078431
0.776471 0.000000 0.066667
0.839216 0.000000 0.062745
0.894118 0.000000 0.074510
0.937255 0.003922 0.074510
0.972549 0.000000 0.101961
1.000000 0.003922 0.113725
1.000000 0.000000 0.125490
1.000000 0.011765 0.164706
1.000000 0.086275 0.200000
1.000000 0.141176 0.227451
1.000000 0.184314 0.247059
0.996078 0.227451 0.282353
1.000000 0.270588 0.329412
0.062745 0.129412 0.105882
0.062745 0.129412 0.105882
0.066667 0.133333 0.101961
0.086275 0.137255 0.101961
0.113725 0.141176 0.109804
0.160784 0.145098 0.101961
0.239216 0.152941 0.101961
0.317647 0.156863 0.086275
0.411765 0.152941 0.090196
0.529412 0.141176 0.078431
0.631373 0.113725 0.074510
0.721569 0.082353 0.062745
0.796078 0.050980 0.050980
0.850980 0.023529 0.050980
0.901961 0.027451 0.070588
0.952941 0.027451 0.078431
0.980392 0.043137 0.098039
0.996078 0.058824 0.109804
1.000000 0.082353 0.149020
1.000000 0.113725 0.176471
0.996078 0.145098 0.196078
1.000000 0.188235 0.235294
1.000000 0.227451 0.274510
1.000000 0.258824 0.298039
0.992157 0.298039 0.329412
0.054902 0.137255 0.101961
0.054902 0.145098 0.113725
0.058824 0.141176 0.105882
0.074510 0.156863 0.098039
0.109804 0.164706 0.098039
0.164706 0.176471 0.094118
0.247059 0.192157 0.090196
0.356863 0.196078 0.078431
0.478431 0.200000 0.082353
0.576471 0.188235 0.058824
0.678431 0.172549 0.050980
0.749020 0.164706 0.047059
0.823529 0.152941 0.043137
0.866667 0.149020 0.054902
0.921569 0.145098 0.062745
0.956863 0.145098 0.082353
0.992157 0.149020 0.098039
1.000000 0.152941 0.125490
1.000000 0.160784 0.152941
0.996078 0.184314 0.184314
0.996078 0.203922 0.219608
0.996078 0.227451 0.243137
1.000000 0.270588 0.290196
1.000000 0.290196 0.317647
0.996078 0.321569 0.337255
0.043137 0.152941 0.098039
0.039216 0.149020 0.094118
0.050980 0.152941 0.101961
0.058824 0.164706 0.090196
0.090196 0.176471 0.094118
0.149020 0.200000 0.082353
0.239216 0.231373 0.070588
0.352941 0.250980 0.062745
0.486275 0.266667 0.043137
0.611765 0.250980 0.027451
0.705882 0.239216 0.019608
0.768627 0.231373 0.019608
0.835294 0.227451 0.023529
0.870588 0.219608 0.039216
0.921569 0.227451 0.062745
0.945098 0.223529 0.082353
0.988235 0.223529 0.113725
1.000000 0.223529 0.141176
0.996078 0.235294 0.164706
0.996078 0.243137 0.192157
1.000000 0.262745 0.219608
0.996078 0.278431 0.254902
0.992157 0.305882 0.286275
1.000000 0.329412 0.321569
1.000000 0.356863 0.352941
0.015686 0.180392 0.094118
0.031373 0.184314 0.101961
0.035294 0.184314 0.094118
0.047059 0.184314 0.098039
0.082353 0.200000 0.090196
0.133333 0.231373 0.078431
0.219608 0.278431 0.062745
0.360784 0.313725 0.023529
0.494118 0.329412 0.000000
0.611765 0.337255 0.000000
0.725490 0.333333 0.000000
0.800000 0.313725 0.000000
0.850980 0.305882 0.003922
0.898039 0.298039 0.031373
0.925490 0.298039 0.070588
0.964706 0.294118 0.094118
0.996078 0.290196 0.121569
0.996078 0.290196 0.152941
1.000000 0.298039 0.188235
1.000000 0.301961 0.215686
0.996078 0.313725 0.247059
1.000000 0.329412 0.282353
1.000000 0.352941 0.309804
0.992157 0.372549 0.337255
1.000000 0.396078 0.372549
0.000000 0.211765 0.090196
0.003922 0.211765 0.094118
0.011765 0.219608 0.098039
0.019608 0.211765 0.086275
0.058824 0.231373 0.086275
0.117647 0.266667 0.066667
0.211765 0.309804 0.050980
0.337255 0.356863 0.000000
0.490196 0.400000 0.000000
0.619608 0.411765 0.003922
0.709804 0.419608 0.007843
0.792157 0.403922 0.000000
0.858824 0.396078 0.003922
0.913725 0.376471 0.039216
0.949020 0.368627 0.086275
0.976471 0.364706 0.105882
0.996078 0.360784 0.141176
1.000000 0.356863 0.180392
1.000000 0.360784 0.215686
1.000000 0.364706 0.250980
1.000000 0.368627 0.266667
1.000000 0.388235 0.301961
0.996078 0.396078 0.337255
1.000000 0.415686 0.360784
0.996078 0.439216 0.392157
0.007843 0.254902 0.082353
0.000000 0.254902 0.082353
0.000000 0.254902 0.082353
0.000000 0.258824 0.082353
0.019608 0.270588 0.074510
0.109804 0.305882 0.066667
0.196078 0.349020 0.035294
0.321569 0.392157 0.003922
0.466667 0.447059 0.000000
0.600000 0.474510 0.007843
0.717647 0.490196 0.000000
0.780392 0.486275 0.000000
0.839216 0.482353 0.000000
0.901961 0.466667 0.015686
0.952941 0.443137 0.113725
0.992157 0.427451 0.149020
0.992157 0.419608 0.180392
0.996078 0.419608 0.215686
1.000000 0.419608 0.247059
1.000000 0.419608 0.270588
1.000000 0.427451 0.298039
0.992157 0.439216 0.329412
1.000000 0.450980 0.360784
1.000000 0.458824 0.380392
1.000000 0.478431 0.411765
0.000000 0.305882 0.070588
0.000000 0.301961 0.082353
0.000000 0.301961 0.082353
0.000000 0.317647 0.066667
0.000000 0.313725 0.074510
0.074510 0.341176 0.054902
0.176471 0.372549 0.023529
0.294118 0.427451 0.000000
0.427451 0.462745 0.000000
0.580392 0.513725 0.000000
0.686275 0.545098 0.003922
0.768627 0.564706 0.000000
0.835294 0.556863 0.000000
0.886275 0.545098 0.000000
0.937255 0.529412 0.101961
0.984314 0.509804 0.168627
1.000000 0.490196 0.223529
0.996078 0.486275 0.258824
0.996078 0.478431 0.286275
1.000000 0.478431 0.317647
0.996078 0.482353 0.333333
1.000000 0.486275 0.368627
1.000000 0.494118 0.392157
1.000000 0.509804 0.415686
0.996078 0.517647 0.435294
0.000000 0.356863 0.054902
0.000000 0.356863 0.054902
0.000000 0.356863 0.054902
0.000000 0.360784 0.058824
0.003922 0.364706 0.062745
0.027451 0.372549 0.043137
0.156863 0.419608 0.015686
0.274510 0.458824 0.000000
