VideoSlicer/Sources/LUTs/FG_CineDrama.cube
#Generated with IWLTBAP LUT Generator
#Website: http://luts.iwltbap.com
TITLE "FG_CineDrama"
#LUT size
LUT_3D_SIZE 5
#LUT data points
0.050980 0.109804 0.090196
0.172549 0.101961 0.094118
0.756863 0.003922 0.054902
1.000000 0.000000 0.094118
0.996078 0.219608 0.290196
0.019608 0.172549 0.090196
0.235294 0.282353 0.039216
0.862745 0.309804 0.000000
1.000000 0.286275 0.164706
1.000000 0.376471 0.352941
0.000000 0.458824 0.000000
0.121569 0.478431 0.003922
0.745098 0.698039 0.000000
0.996078 0.666667 0.329412
1.000000 0.639216 0.498039
0.168627 0.701961 0.098039
0.266667 0.709804 0.121569
0.580392 0.796078 0.227451
0.917647 0.901961 0.411765
0.992157 0.847059 0.631373
0.498039 0.945098 0.466667
0.509804 0.929412 0.474510
0.592157 0.933333 0.513725
0.835294 0.972549 0.619608
1.000000 0.976471 0.733333
0.031373 0.117647 0.160784
0.184314 0.113725 0.176471
0.611765 0.000000 0.235294
0.949020 0.207843 0.337255
0.992157 0.427451 0.486275
0.000000 0.196078 0.152941
0.180392 0.231373 0.192157
0.721569 0.286275 0.278431
0.976471 0.400000 0.400000
1.000000 0.517647 0.517647
0.000000 0.478431 0.176471
0.164706 0.478431 0.192157
0.721569 0.682353 0.301961
1.000000 0.698039 0.533333
1.000000 0.709804 0.635294
0.274510 0.705882 0.247059
0.337255 0.705882 0.254902
0.572549 0.784314 0.349020
0.913725 0.901961 0.537255
1.000000 0.874510 0.725490
0.513725 0.945098 0.501961
0.529412 0.925490 0.517647
0.600000 0.937255 0.549020
0.835294 0.960784 0.658824
1.000000 0.968627 0.776471
0.000000 0.113725 0.490196
0.329412 0.011765 0.482353
0.682353 0.000000 0.490196
0.850980 0.133333 0.462745
0.996078 0.458824 0.588235
0.000000 0.321569 0.439216
0.129412 0.227451 0.478431
0.643137 0.219608 0.462745
0.847059 0.372549 0.509804
1.000000 0.576471 0.631373
0.000000 0.505882 0.388235
0.278431 0.521569 0.423529
0.647059 0.592157 0.541176
0.890196 0.694118 0.666667
1.000000 0.760784 0.741176
0.380392 0.725490 0.435294
0.474510 0.729412 0.470588
0.572549 0.737255 0.490196
0.894118 0.890196 0.709804
1.000000 0.901961 0.843137
0.541176 0.945098 0.596078
0.556863 0.929412 0.600000
0.631373 0.937255 0.631373
0.827451 0.960784 0.725490
0.988235 0.968627 0.850980
0.000000 0.125490 0.764706
0.317647 0.035294 0.768627
0.752941 0.000000 0.756863
0.941176 0.070588 0.725490
0.996078 0.396078 0.686275
0.000000 0.309804 0.713725
0.062745 0.270588 0.725490
0.709804 0.231373 0.737255
0.905882 0.337255 0.717647
0.996078 0.494118 0.701961
0.000000 0.627451 0.666667
0.000000 0.619608 0.682353
0.580392 0.533333 0.729412
0.850980 0.592157 0.733333
0.984314 0.678431 0.764706
0.282353 0.737255 0.615686
0.396078 0.745098 0.627451
0.580392 0.760784 0.658824
0.835294 0.835294 0.803922
0.980392 0.901961 0.898039
0.498039 0.952941 0.666667
0.521569 0.933333 0.670588
0.670588 0.945098 0.741176
0.807843 0.949020 0.800000
0.968627 0.968627 0.921569
0.000000 0.301961 1.000000
0.380392 0.290196 0.988235
0.698039 0.290196 0.976471
0.980392 0.329412 0.964706
1.000000 0.458824 0.905882
0.000000 0.411765 0.952941
0.341176 0.407843 0.956863
0.666667 0.415686 0.956863
0.956863 0.439216 0.968627
0.992157 0.533333 0.901961
0.258824 0.694118 0.941176
0.376471 0.666667 0.945098
0.580392 0.607843 0.960784
0.890196 0.635294 0.956863
1.000000 0.686275 0.925490
0.003922 0.886275 0.925490
0.207843 0.882353 0.929412
0.462745 0.866667 0.925490
0.776471 0.807843 0.949020
1.000000 0.847059 0.921569
0.501961 0.988235 0.878431
0.541176 0.980392 0.886275
0.658824 0.988235 0.894118
0.847059 0.972549 0.929412
0.972549 0.964706 0.968627
