VideoSlicer/Sources/LUTs/FG_CineTeal&Orange2.cube
#Generated with IWLTBAP LUT Generator
#Website: http://luts.iwltbap.com
TITLE "FG_CineTeal&Orange2"
#LUT size
LUT_3D_SIZE 25
#LUT data points
0.109804 0.094118 0.090196
0.109804 0.094118 0.090196
0.109804 0.094118 0.090196
0.125490 0.094118 0.094118
0.156863 0.098039 0.086275
0.196078 0.105882 0.082353
0.243137 0.105882 0.082353
0.286275 0.113725 0.078431
0.341176 0.121569 0.074510
0.403922 0.137255 0.054902
0.470588 0.152941 0.039216
0.545098 0.172549 0.015686
0.615686 0.196078 0.000000
0.694118 0.223529 0.000000
0.768627 0.243137 0.000000
0.835294 0.278431 0.000000
0.886275 0.290196 0.003922
0.921569 0.305882 0.003922
0.956863 0.321569 0.000000
0.992157 0.337255 0.000000
1.000000 0.341176 0.000000
1.000000 0.364706 0.007843
1.000000 0.364706 0.000000
0.996078 0.388235 0.003922
0.996078 0.454902 0.070588
0.172549 0.101961 0.094118
0.101961 0.098039 0.082353
0.109804 0.094118 0.082353
0.133333 0.094118 0.086275
0.168627 0.098039 0.090196
0.196078 0.105882 0.082353
0.235294 0.105882 0.078431
0.270588 0.113725 0.074510
0.309804 0.121569 0.066667
0.380392 0.133333 0.062745
0.447059 0.152941 0.047059
0.529412 0.168627 0.023529
0.592157 0.192157 0.003922
0.678431 0.223529 0.000000
0.760784 0.247059 0.000000
0.819608 0.270588 0.000000
0.870588 0.290196 0.000000
0.909804 0.305882 0.000000
0.952941 0.317647 0.000000
0.984314 0.333333 0.000000
1.000000 0.345098 0.000000
0.996078 0.360784 0.003922
1.000000 0.368627 0.003922
0.996078 0.388235 0.000000
1.000000 0.466667 0.145098
0.156863 0.101961 0.090196
0.109804 0.094118 0.082353
0.117647 0.098039 0.082353
0.141176 0.105882 0.086275
0.164706 0.105882 0.078431
0.196078 0.105882 0.082353
0.235294 0.105882 0.078431
0.270588 0.121569 0.078431
0.305882 0.117647 0.062745
0.352941 0.133333 0.074510
0.403922 0.137255 0.047059
0.474510 0.160784 0.031373
0.564706 0.188235 0.000000
0.658824 0.219608 0.000000
0.737255 0.247059 0.003922
0.800000 0.266667 0.000000
0.850980 0.290196 0.000000
0.898039 0.305882 0.000000
0.937255 0.317647 0.007843
0.968627 0.329412 0.000000
0.996078 0.341176 0.000000
1.000000 0.352941 0.000000
1.000000 0.364706 0.000000
0.996078 0.388235 0.003922
0.996078 0.450980 0.015686
0.215686 0.105882 0.094118
0.105882 0.101961 0.082353
0.125490 0.109804 0.074510
0.141176 0.113725 0.082353
0.172549 0.117647 0.082353
0.196078 0.117647 0.082353
0.227451 0.121569 0.078431
0.258824 0.117647 0.070588
0.305882 0.125490 0.062745
0.345098 0.129412 0.058824
0.400000 0.149020 0.050980
0.454902 0.156863 0.031373
0.537255 0.180392 0.003922
0.635294 0.219608 0.000000
0.713725 0.239216 0.000000
0.776471 0.266667 0.000000
0.831373 0.286275 0.000000
0.878431 0.301961 0.000000
0.925490 0.313725 0.000000
0.952941 0.325490 0.000000
0.988235 0.337255 0.000000
0.996078 0.349020 0.000000
0.996078 0.360784 0.003922
1.000000 0.380392 0.000000
1.000000 0.454902 0.098039
0.200000 0.109804 0.086275
0.121569 0.121569 0.082353
0.133333 0.125490 0.078431
0.141176 0.125490 0.078431
0.164706 0.129412 0.070588
0.200000 0.129412 0.074510
0.235294 0.133333 0.074510
0.270588 0.129412 0.066667
0.301961 0.141176 0.070588
0.341176 0.137255 0.054902
0.388235 0.145098 0.047059
0.443137 0.156863 0.027451
0.521569 0.180392 0.003922
0.607843 0.211765 0.000000
0.690196 0.243137 0.000000
0.749020 0.262745 0.000000
0.811765 0.282353 0.000000
0.858824 0.298039 0.000000
0.894118 0.313725 0.000000
0.929412 0.329412 0.000000
0.972549 0.341176 0.003922
0.996078 0.349020 0.000000
0.996078 0.360784 0.003922
0.996078 0.368627 0.000000
1.000000 0.380392 0.000000
0.113725 0.145098 0.094118
0.117647 0.141176 0.101961
0.129412 0.141176 0.098039
0.160784 0.145098 0.101961
0.184314 0.149020 0.082353
0.227451 0.145098 0.078431
0.258824 0.137255 0.066667
0.301961 0.141176 0.074510
0.349020 0.141176 0.070588
0.400000 0.145098 0.058824
0.447059 0.160784 0.035294
0.529412 0.184314 0.007843
0.607843 0.219608 0.000000
0.682353 0.247059 0.000000
0.749020 0.266667 0.000000
0.803922 0.286275 0.000000
0.858824 0.305882 0.003922
0.898039 0.317647 0.003922
0.929412 0.333333 0.000000
0.972549 0.349020 0.000000
0.996078 0.368627 0.007843
0.996078 0.368627 0.007843
1.000000 0.384314 0.003922
1.000000 0.396078 0.003922
1.000000 0.458824 0.000000
0.270588 0.129412 0.066667
0.125490 0.149020 0.101961
0.149020 0.149020 0.101961
0.176471 0.164706 0.098039
0.196078 0.168627 0.098039
0.215686 0.168627 0.082353
0.250980 0.164706 0.082353
0.305882 0.168627 0.082353
0.345098 0.164706 0.070588
0.388235 0.164706 0.066667
0.454902 0.168627 0.043137
0.529412 0.200000 0.019608
0.611765 0.223529 0.000000
0.682353 0.243137 0.007843
0.752941 0.270588 0.007843
0.807843 0.290196 0.000000
0.847059 0.309804 0.003922
0.898039 0.321569 0.007843
0.929412 0.337255 0.000000
0.972549 0.345098 0.007843
0.996078 0.360784 0.003922
0.996078 0.368627 0.000000
1.000000 0.372549 0.000000
1.000000 0.400000 0.000000
1.000000 0.466667 0.105882
0.254902 0.152941 0.062745
0.141176 0.164706 0.109804
0.164706 0.176471 0.109804
0.176471 0.180392 0.109804
0.196078 0.188235 0.101961
0.231373 0.192157 0.094118
0.266667 0.188235 0.090196
0.298039 0.196078 0.074510
0.349020 0.196078 0.082353
0.396078 0.200000 0.062745
0.458824 0.207843 0.066667
0.533333 0.215686 0.039216
0.600000 0.227451 0.015686
0.674510 0.250980 0.000000
0.737255 0.274510 0.000000
0.792157 0.294118 0.000000
0.847059 0.309804 0.003922
0.878431 0.321569 0.000000
0.929412 0.333333 0.000000
0.960784 0.352941 0.000000
0.996078 0.368627 0.000000
1.000000 0.372549 0.003922
1.000000 0.376471 0.000000
1.000000 0.403922 0.000000
1.000000 0.450980 0.000000
0.294118 0.156863 0.039216
0.149020 0.184314 0.117647
0.160784 0.196078 0.121569
0.180392 0.200000 0.113725
0.196078 0.207843 0.101961
0.227451 0.211765 0.098039
0.258824 0.219608 0.090196
0.309804 0.219608 0.086275
0.345098 0.231373 0.074510
0.419608 0.250980 0.054902
0.490196 0.254902 0.050980
0.552941 0.258824 0.035294
0.607843 0.262745 0.011765
0.654902 0.266667 0.000000
0.721569 0.274510 0.000000
0.780392 0.290196 0.000000
0.823529 0.309804 0.000000
0.866667 0.325490 0.000000
0.913725 0.333333 0.003922
0.949020 0.349020 0.003922
0.984314 0.360784 0.000000
1.000000 0.364706 0.000000
0.996078 0.388235 0.003922
1.000000 0.403922 0.007843
0.996078 0.466667 0.078431
0.262745 0.180392 0.058824
0.156863 0.211765 0.121569
0.172549 0.219608 0.125490
0.172549 0.219608 0.125490
0.196078 0.231373 0.117647
0.235294 0.239216 0.113725
0.270588 0.250980 0.101961
0.305882 0.254902 0.090196
0.372549 0.258824 0.086275
0.427451 0.282353 0.070588
0.498039 0.298039 0.043137
0.560784 0.301961 0.011765
0.615686 0.309804 0.000000
0.678431 0.313725 0.003922
0.717647 0.301961 0.003922
0.756863 0.294118 0.003922
0.803922 0.305882 0.000000
0.847059 0.321569 0.000000
0.886275 0.337255 0.000000
0.933333 0.345098 0.003922
0.968627 0.360784 0.000000
1.000000 0.372549 0.003922
0.992157 0.388235 0.011765
0.996078 0.396078 0.000000
1.000000 0.411765 0.003922
0.156863 0.274510 0.172549
0.164706 0.282353 0.172549
0.160784 0.282353 0.160784
0.164706 0.278431 0.160784
0.196078 0.294118 0.168627
0.243137 0.313725 0.149020
0.309804 0.337255 0.137255
0.380392 0.356863 0.113725
0.439216 0.364706 0.105882
0.513725 0.372549 0.074510
0.568627 0.388235 0.050980
0.635294 0.392157 0.007843
0.694118 0.388235 0.000000
0.737255 0.388235 0.000000
0.776471 0.388235 0.000000
0.823529 0.384314 0.000000
0.847059 0.376471 0.000000
0.886275 0.368627 0.003922
0.921569 0.372549 0.000000
0.956863 0.372549 0.003922
0.984314 0.380392 0.003922
1.000000 0.396078 0.000000
0.992157 0.403922 0.000000
1.000000 0.415686 0.003922
0.996078 0.474510 0.023529
0.411765 0.262745 0.007843
0.160784 0.282353 0.160784
0.172549 0.313725 0.172549
0.203922 0.325490 0.164706
0.239216 0.337255 0.172549
0.262745 0.349020 0.168627
0.309804 0.364706 0.156863
0.372549 0.392157 0.125490
0.443137 0.415686 0.109804
0.490196 0.400000 0.086275
0.580392 0.419608 0.058824
0.631373 0.423529 0.015686
0.686275 0.423529 0.003922
0.729412 0.423529 0.000000
0.780392 0.427451 0.000000
0.819608 0.415686 0.011765
0.866667 0.407843 0.003922
0.890196 0.407843 0.003922
0.933333 0.392157 0.003922
0.960784 0.392157 0.000000
0.992157 0.388235 0.011765
1.000000 0.403922 0.000000
0.996078 0.407843 0.000000
1.000000 0.427451 0.000000
1.000000 0.529412 0.117647
0.360784 0.325490 0.062745
0.184314 0.317647 0.180392
0.188235 0.349020 0.184314
0.196078 0.364706 0.196078
0.247059 0.372549 0.188235
0.278431 0.388235 0.188235
0.317647 0.400000 0.180392
0.376471 0.423529 0.164706
0.439216 0.447059 0.121569
0.509804 0.470588 0.090196
0.552941 0.443137 0.054902
0.635294 0.466667 0.023529
0.686275 0.462745 0.003922
0.729412 0.454902 0.007843
0.772549 0.454902 0.000000
0.811765 0.454902 0.003922
0.858824 0.443137 0.003922
0.894118 0.431373 0.000000
0.925490 0.431373 0.000000
0.949020 0.423529 0.000000
0.984314 0.427451 0.003922
1.000000 0.419608 0.003922
0.996078 0.411765 0.003922
1.000000 0.427451 0.000000
0.992157 0.498039 0.000000
0.474510 0.360784 0.000000
0.180392 0.356863 0.196078
0.172549 0.392157 0.207843
0.219608 0.400000 0.207843
0.262745 0.411765 0.211765
0.274510 0.423529 0.200000
0.313725 0.427451 0.200000
0.356863 0.443137 0.188235
0.423529 0.466667 0.160784
0.490196 0.486275 0.125490
0.568627 0.505882 0.070588
0.611765 0.490196 0.031373
0.678431 0.501961 0.003922
0.729412 0.494118 0.007843
0.772549 0.494118 0.000000
0.823529 0.486275 0.003922
0.854902 0.482353 0.000000
0.886275 0.470588 0.003922
0.917647 0.454902 0.000000
0.952941 0.450980 0.000000
0.976471 0.439216 0.000000
1.000000 0.439216 0.007843
1.000000 0.427451 0.000000
1.000000 0.427451 0.000000
1.000000 0.580392 0.062745
0.400000 0.407843 0.082353
0.188235 0.396078 0.215686
0.196078 0.423529 0.223529
0.211765 0.435294 0.227451
0.258824 0.443137 0.227451
0.278431 0.454902 0.223529
0.325490 0.466667 0.223529
0.372549 0.478431 0.207843
0.427451 0.501961 0.180392
0.494118 0.521569 0.149020
0.568627 0.541176 0.117647
0.615686 0.549020 0.031373
0.662745 0.537255 0.011765
0.729412 0.537255 0.003922
0.768627 0.533333 0.007843
0.807843 0.517647 0.003922
0.839216 0.513725 0.003922
0.866667 0.501961 0.000000
0.909804 0.505882 0.000000
0.945098 0.494118 0.000000
0.980392 0.482353 0.007843
1.000000 0.466667 0.003922
0.992157 0.450980 0.000000
0.996078 0.454902 0.000000
0.992157 0.450980 0.000000
0.243137 0.615686 0.341176
0.239216 0.619608 0.349020
0.243137 0.619608 0.360784
0.247059 0.619608 0.360784
0.258824 0.607843 0.356863
0.305882 0.607843 0.333333
0.360784 0.607843 0.321569
0.407843 0.619608 0.313725
0.470588 0.627451 0.282353
0.529412 0.647059 0.270588
0.592157 0.643137 0.227451
0.670588 0.666667 0.203922
0.725490 0.666667 0.160784
0.776471 0.639216 0.137255
0.835294 0.623529 0.090196
0.878431 0.627451 0.011765
0.909804 0.611765 0.000000
0.937255 0.596078 0.000000
0.968627 0.588235 0.000000
0.992157 0.572549 0.000000
1.000000 0.572549 0.003922
0.996078 0.545098 0.007843
1.000000 0.529412 0.007843
1.000000 0.513725 0.000000
0.996078 0.619608 0.003922
0.658824 0.627451 0.000000
0.192157 0.603922 0.341176
0.196078 0.627451 0.349020
0.286275 0.607843 0.345098
0.298039 0.623529 0.341176
0.313725 0.631373 0.329412
0.352941 0.635294 0.337255
0.392157 0.643137 0.333333
0.447059 0.650980 0.317647
0.505882 0.666667 0.298039
0.576471 0.674510 0.266667
0.650980 0.686275 0.235294
0.717647 0.701961 0.207843
0.764706 0.686275 0.172549
0.811765 0.670588 0.137255
0.878431 0.654902 0.101961
0.901961 0.643137 0.062745
0.945098 0.635294 0.000000
0.976471 0.623529 0.003922
1.000000 0.603922 0.011765
1.000000 0.588235 0.000000
0.996078 0.572549 0.003922
1.000000 0.568627 0.000000
1.000000 0.560784 0.000000
1.000000 0.701961 0.137255
0.533333 0.658824 0.090196
0.239216 0.635294 0.337255
0.152941 0.690196 0.384314
0.286275 0.650980 0.372549
0.301961 0.662745 0.376471
0.325490 0.662745 0.368627
0.364706 0.670588 0.372549
0.403922 0.674510 0.356863
0.454902 0.682353 0.345098
0.509804 0.694118 0.325490
0.568627 0.705882 0.313725
0.623529 0.717647 0.270588
0.690196 0.729412 0.247059
0.772549 0.749020 0.215686
0.811765 0.717647 0.184314
0.866667 0.694118 0.164706
0.905882 0.674510 0.125490
0.937255 0.662745 0.078431
0.960784 0.654902 0.000000
0.992157 0.643137 0.007843
1.000000 0.635294 0.007843
1.000000 0.611765 0.000000
1.000000 0.564706 0.000000
1.000000 0.584314 0.003922
1.000000 0.678431 0.003922
0.674510 0.709804 0.000000
0.176471 0.709804 0.411765
0.250980 0.705882 0.411765
0.317647 0.694118 0.403922
0.325490 0.701961 0.411765
0.349020 0.701961 0.411765
0.360784 0.705882 0.400000
0.403922 0.705882 0.384314
0.443137 0.717647 0.380392
0.513725 0.729412 0.364706
0.556863 0.737255 0.352941
0.619608 0.745098 0.317647
0.686275 0.752941 0.298039
0.749020 0.768627 0.262745
0.823529 0.776471 0.235294
0.847059 0.737255 0.207843
0.905882 0.709804 0.188235
0.937255 0.694118 0.156863
0.972549 0.682353 0.090196
0.988235 0.666667 0.000000
1.000000 0.654902 0.003922
0.996078 0.635294 0.000000
1.000000 0.580392 0.011765
1.000000 0.623529 0.000000
1.000000 0.749020 0.223529
0.537255 0.745098 0.094118
0.223529 0.745098 0.427451
0.254902 0.764706 0.470588
0.337255 0.737255 0.450980
0.345098 0.737255 0.450980
0.360784 0.737255 0.439216
0.388235 0.745098 0.443137
0.419608 0.745098 0.423529
0.466667 0.749020 0.419608
0.513725 0.764706 0.415686
0.564706 0.768627 0.376471
0.615686 0.776471 0.360784
0.666667 0.776471 0.333333
0.729412 0.788235 0.321569
0.803922 0.792157 0.286275
0.858824 0.796078 0.250980
0.886275 0.756863 0.211765
0.929412 0.737255 0.192157
0.964706 0.717647 0.172549
0.992157 0.701961 0.109804
1.000000 0.682353 0.000000
1.000000 0.650980 0.000000
1.000000 0.631373 0.003922
1.000000 0.588235 0.000000
0.996078 0.580392 0.000000
0.603922 0.866667 0.725490
0.600000 0.874510 0.733333
0.600000 0.878431 0.721569
0.607843 0.866667 0.709804
0.607843 0.862745 0.705882
0.619608 0.858824 0.698039
0.643137 0.866667 0.690196
0.670588 0.874510 0.682353
0.701961 0.874510 0.674510
0.737255 0.874510 0.654902
0.776471 0.886275 0.647059
0.827451 0.886275 0.631373
0.886275 0.886275 0.603922
0.929412 0.862745 0.580392
0.956863 0.847059 0.560784
0.996078 0.811765 0.545098
0.996078 0.800000 0.521569
1.000000 0.780392 0.501961
1.000000 0.756863 0.470588
1.000000 0.741176 0.423529
0.992157 0.713725 0.360784
1.000000 0.698039 0.298039
1.000000 0.654902 0.247059
1.000000 0.619608 0.325490
1.000000 0.788235 0.615686
0.886275 0.890196 0.525490
0.615686 0.890196 0.745098
0.615686 0.878431 0.709804
0.619608 0.874510 0.709804
0.647059 0.886275 0.725490
0.654902 0.882353 0.725490
0.662745 0.890196 0.733333
0.686275 0.894118 0.721569
0.713725 0.898039 0.717647
0.749020 0.898039 0.705882
0.788235 0.901961 0.690196
0.823529 0.905882 0.686275
0.866667 0.913725 0.662745
0.913725 0.913725 0.639216
0.956863 0.886275 0.627451
0.980392 0.862745 0.619608
1.000000 0.839216 0.596078
1.000000 0.827451 0.592157
1.000000 0.803922 0.556863
0.992157 0.792157 0.533333
1.000000 0.772549 0.486275
1.000000 0.749020 0.443137
1.000000 0.721569 0.376471
1.000000 0.647059 0.341176
1.000000 0.858824 0.694118
0.792157 0.925490 0.627451
0.650980 0.909804 0.768627
0.658824 0.909804 0.764706
0.662745 0.901961 0.768627
0.674510 0.909804 0.768627
0.690196 0.913725 0.784314
0.698039 0.909804 0.768627
0.717647 0.913725 0.776471
0.737255 0.925490 0.768627
0.760784 0.921569 0.764706
0.792157 0.921569 0.745098
0.827451 0.929412 0.752941
0.874510 0.929412 0.729412
0.898039 0.925490 0.713725
0.937255 0.917647 0.690196
0.964706 0.905882 0.690196
1.000000 0.886275 0.682353
1.000000 0.862745 0.666667
0.996078 0.850980 0.647059
1.000000 0.847059 0.623529
1.000000 0.823529 0.600000
1.000000 0.807843 0.568627
1.000000 0.764706 0.509804
0.996078 0.705882 0.435294
0.996078 0.866667 0.737255
0.882353 0.945098 0.658824
0.701961 0.941176 0.819608
0.701961 0.925490 0.796078
0.709804 0.933333 0.807843
0.717647 0.925490 0.807843
0.725490 0.945098 0.807843
0.737255 0.937255 0.815686
0.741176 0.941176 0.819608
0.768627 0.941176 0.811765
0.784314 0.949020 0.803922
0.827451 0.945098 0.803922
0.847059 0.945098 0.792157
0.866667 0.949020 0.788235
0.901961 0.949020 0.792157
0.929412 0.952941 0.780392
0.968627 0.937255 0.756863
0.980392 0.925490 0.749020
0.996078 0.905882 0.741176
0.992157 0.894118 0.733333
1.000000 0.886275 0.729412
1.000000 0.870588 0.701961
1.000000 0.862745 0.686275
1.000000 0.819608 0.639216
0.996078 0.776471 0.584314
1.000000 0.917647 0.796078
0.819608 0.964706 0.760784
0.745098 0.956863 0.847059
0.756863 0.952941 0.847059
0.768627 0.956863 0.862745
0.772549 0.960784 0.866667
0.784314 0.960784 0.870588
0.788235 0.960784 0.854902
0.807843 0.960784 0.878431
0.811765 0.968627 0.866667
0.827451 0.964706 0.847059
0.843137 0.972549 0.858824
0.866667 0.972549 0.847059
0.894118 0.976471 0.847059
0.913725 0.972549 0.843137
0.941176 0.968627 0.835294
0.960784 0.960784 0.827451
0.968627 0.949020 0.823529
1.000000 0.937255 0.819608
1.000000 0.933333 0.815686
1.000000 0.925490 0.811765
1.000000 0.917647 0.815686
0.992157 0.909804 0.803922
1.000000 0.894118 0.788235
1.000000 0.874510 0.752941
0.992157 0.858824 0.713725
0.113725 0.098039 0.094118
0.113725 0.090196 0.090196
0.113725 0.098039 0.094118
0.117647 0.101961 0.090196
0.117647 0.113725 0.094118
0.141176 0.125490 0.090196
0.172549 0.133333 0.094118
0.203922 0.129412 0.074510
0.235294 0.137255 0.066667
0.270588 0.133333 0.058824
0.298039 0.133333 0.039216
0.341176 0.137255 0.043137
0.376471 0.137255 0.027451
0.419608 0.145098 0.015686
0.474510 0.164706 0.007843
0.564706 0.200000 0.000000
0.643137 0.227451 0.000000
0.721569 0.254902 0.003922
0.796078 0.278431 0.000000
0.843137 0.298039 0.000000
0.890196 0.313725 0.000000
0.937255 0.345098 0.003922
0.984314 0.352941 0.000000
1.000000 0.372549 0.003922
1.000000 0.411765 0.000000
0.133333 0.101961 0.090196
0.105882 0.109804 0.090196
0.105882 0.105882 0.098039
0.105882 0.109804 0.090196
0.117647 0.121569 0.090196
0.129412 0.129412 0.082353
0.164706 0.141176 0.086275
0.192157 0.145098 0.082353
0.227451 0.145098 0.078431
0.254902 0.141176 0.070588
0.286275 0.145098 0.050980
0.329412 0.145098 0.043137
0.364706 0.149020 0.027451
0.396078 0.152941 0.007843
0.447059 0.152941 0.000000
0.533333 0.192157 0.000000
0.615686 0.219608 0.007843
0.698039 0.250980 0.003922
0.760784 0.274510 0.000000
0.823529 0.294118 0.003922
0.878431 0.313725 0.003922
0.929412 0.333333 0.007843
0.976471 0.352941 0.000000
1.000000 0.372549 0.003922
0.996078 0.415686 0.000000
0.125490 0.113725 0.086275
0.098039 0.125490 0.094118
0.109804 0.121569 0.094118
0.101961 0.125490 0.086275
0.105882 0.137255 0.086275
0.129412 0.137255 0.082353
0.156863 0.152941 0.082353
0.196078 0.152941 0.074510
0.215686 0.152941 0.062745
0.250980 0.156863 0.054902
0.274510 0.156863 0.054902
0.313725 0.152941 0.035294
0.345098 0.156863 0.015686
0.388235 0.164706 0.003922
0.431373 0.168627 0.000000
0.505882 0.188235 0.003922
0.576471 0.215686 0.000000
0.658824 0.247059 0.000000
0.725490 0.266667 0.003922
0.780392 0.290196 0.007843
0.835294 0.305882 0.007843
0.894118 0.321569 0.000000
0.952941 0.345098 0.000000
1.000000 0.364706 0.000000
0.996078 0.407843 0.000000
0.160784 0.121569 0.082353
0.070588 0.160784 0.090196
0.090196 0.137255 0.082353
0.098039 0.141176 0.086275
0.109804 0.152941 0.090196
0.125490 0.160784 0.078431
0.145098 0.164706 0.078431
0.176471 0.168627 0.070588
0.207843 0.168627 0.062745
0.231373 0.164706 0.047059
0.270588 0.168627 0.047059
0.301961 0.168627 0.031373
0.341176 0.172549 0.015686
0.368627 0.176471 0.007843
0.419608 0.180392 0.000000
0.478431 0.196078 0.000000
0.560784 0.211765 0.000000
0.619608 0.227451 0.000000
0.686275 0.258824 0.003922
0.749020 0.282353 0.000000
0.815686 0.298039 0.003922
0.870588 0.321569 0.000000
0.925490 0.337255 0.000000
0.988235 0.360784 0.000000
0.992157 0.431373 0.000000
0.137255 0.156863 0.078431
0.062745 0.160784 0.086275
0.086275 0.160784 0.086275
0.098039 0.152941 0.086275
0.105882 0.164706 0.082353
0.113725 0.168627 0.078431
0.141176 0.180392 0.086275
0.160784 0.180392 0.062745
0.196078 0.176471 0.050980
0.219608 0.180392 0.043137
0.258824 0.180392 0.043137
0.290196 0.180392 0.027451
0.313725 0.180392 0.003922
0.360784 0.188235 0.003922
0.400000 0.192157 0.000000
0.447059 0.207843 0.000000
0.533333 0.227451 0.000000
0.600000 0.243137 0.000000
0.666667 0.254902 0.000000
0.737255 0.270588 0.003922
0.800000 0.301961 0.000000
0.858824 0.317647 0.000000
0.901961 0.341176 0.003922
0.956863 0.349020 0.000000
0.996078 0.368627 0.000000
0.121569 0.141176 0.113725
0.121569 0.141176 0.113725
0.121569 0.145098 0.105882
0.137255 0.145098 0.101961
0.172549 0.149020 0.094118
0.207843 0.145098 0.086275
0.243137 0.141176 0.082353
0.274510 0.149020 0.066667
0.313725 0.145098 0.070588
0.360784 0.149020 0.054902
0.403922 0.152941 0.043137
0.470588 0.176471 0.023529
0.564706 0.207843 0.000000
0.647059 0.231373 0.003922
0.717647 0.254902 0.003922
0.768627 0.278431 0.000000
0.823529 0.301961 0.007843
0.878431 0.313725 0.003922
0.909804 0.329412 0.000000
0.949020 0.337255 0.003922
0.980392 0.349020 0.000000
0.996078 0.360784 0.003922
1.000000 0.372549 0.003922
1.000000 0.392157 0.000000
0.996078 0.454902 0.000000
0.274510 0.133333 0.070588
0.141176 0.145098 0.125490
0.141176 0.152941 0.117647
0.152941 0.156863 0.101961
0.176471 0.164706 0.098039
0.200000 0.164706 0.098039
0.239216 0.164706 0.101961
0.274510 0.164706 0.082353
0.313725 0.164706 0.082353
0.352941 0.168627 0.058824
0.411765 0.176471 0.043137
0.478431 0.184314 0.031373
0.556863 0.203922 0.007843
0.639216 0.239216 0.007843
0.709804 0.258824 0.003922
0.768627 0.282353 0.000000
0.823529 0.301961 0.000000
0.870588 0.313725 0.000000
0.913725 0.333333 0.003922
0.945098 0.337255 0.000000
0.984314 0.352941 0.000000
1.000000 0.368627 0.003922
1.000000 0.380392 0.000000
1.000000 0.400000 0.003922
1.000000 0.462745 0.109804
0.239216 0.152941 0.062745
0.141176 0.160784 0.137255
0.145098 0.168627 0.129412
0.156863 0.172549 0.113725
0.172549 0.176471 0.113725
0.203922 0.184314 0.109804
0.227451 0.180392 0.094118
0.278431 0.184314 0.090196
0.321569 0.188235 0.078431
0.368627 0.192157 0.062745
0.423529 0.207843 0.054902
0.490196 0.223529 0.047059
0.549020 0.231373 0.011765
0.623529 0.239216 0.000000
0.694118 0.262745 0.000000
0.752941 0.282353 0.007843
0.803922 0.298039 0.000000
0.854902 0.321569 0.000000
0.894118 0.333333 0.003922
0.941176 0.341176 0.003922
0.956863 0.349020 0.000000
1.000000 0.364706 0.003922
1.000000 0.380392 0.000000
1.000000 0.388235 0.000000
0.996078 0.443137 0.000000
0.301961 0.164706 0.047059
0.164706 0.172549 0.160784
0.152941 0.184314 0.125490
0.164706 0.192157 0.121569
0.176471 0.196078 0.117647
0.192157 0.200000 0.109804
0.231373 0.207843 0.113725
0.266667 0.211765 0.098039
0.313725 0.219608 0.086275
0.376471 0.227451 0.082353
0.439216 0.239216 0.070588
0.494118 0.247059 0.047059
0.560784 0.262745 0.027451
0.615686 0.266667 0.000000
0.674510 0.270588 0.007843
0.725490 0.278431 0.000000
0.780392 0.298039 0.003922
0.835294 0.309804 0.000000
0.878431 0.329412 0.003922
0.917647 0.341176 0.000000
0.956863 0.360784 0.003922
0.996078 0.368627 0.007843
0.992157 0.384314 0.000000
1.000000 0.403922 0.000000
1.000000 0.462745 0.078431
0.258824 0.176471 0.054902
0.156863 0.203922 0.156863
0.156863 0.200000 0.145098
0.164706 0.211765 0.133333
0.184314 0.223529 0.129412
0.203922 0.227451 0.125490
0.235294 0.231373 0.113725
0.286275 0.247059 0.117647
0.325490 0.239216 0.094118
0.384314 0.254902 0.086275
0.439216 0.270588 0.074510
0.486275 0.282353 0.058824
0.545098 0.286275 0.050980
0.603922 0.298039 0.023529
0.662745 0.298039 0.003922
0.705882 0.290196 0.000000
0.760784 0.298039 0.007843
0.815686 0.313725 0.000000
0.866667 0.325490 0.000000
0.913725 0.345098 0.000000
0.949020 0.356863 0.000000
0.992157 0.372549 0.000000
1.000000 0.380392 0.000000
0.996078 0.388235 0.003922
1.000000 0.396078 0.000000
0.149020 0.278431 0.164706
0.160784 0.278431 0.176471
0.164706 0.278431 0.168627
0.176471 0.270588 0.168627
0.203922 0.282353 0.168627
0.243137 0.298039 0.160784
0.298039 0.321569 0.149020
0.360784 0.337255 0.133333
