VideoSlicer/Sources/LUTs/FG_CineTeal&Orange2.cube
#Generated with IWLTBAP LUT Generator
#Website: http://luts.iwltbap.com
TITLE "FG_CineTeal&Orange2"
#LUT size
LUT_3D_SIZE 5
#LUT data points
0.109804 0.094118 0.090196
0.243137 0.105882 0.082353
0.615686 0.196078 0.000000
0.956863 0.321569 0.000000
0.996078 0.454902 0.070588
0.270588 0.129412 0.066667
0.250980 0.164706 0.082353
0.611765 0.223529 0.000000
0.929412 0.337255 0.000000
1.000000 0.466667 0.105882
0.360784 0.325490 0.062745
0.317647 0.400000 0.180392
0.686275 0.462745 0.003922
0.925490 0.431373 0.000000
0.992157 0.498039 0.000000
0.674510 0.709804 0.000000
0.360784 0.705882 0.400000
0.686275 0.752941 0.298039
0.972549 0.682353 0.090196
1.000000 0.749020 0.223529
0.819608 0.964706 0.760784
0.788235 0.960784 0.854902
0.894118 0.976471 0.847059
1.000000 0.933333 0.815686
0.992157 0.858824 0.713725
0.086275 0.125490 0.129412
0.180392 0.141176 0.145098
0.372549 0.156863 0.086275
0.796078 0.286275 0.003922
0.996078 0.415686 0.000000
0.278431 0.133333 0.094118
0.203922 0.184314 0.168627
0.513725 0.231373 0.145098
0.901961 0.341176 0.000000
0.996078 0.466667 0.105882
0.364706 0.333333 0.141176
0.274510 0.403922 0.282353
0.662745 0.474510 0.215686
0.921569 0.454902 0.101961
1.000000 0.513725 0.066667
0.674510 0.725490 0.137255
0.364706 0.709804 0.470588
0.650980 0.749020 0.392157
0.949020 0.686275 0.278431
1.000000 0.764706 0.407843
0.807843 0.964706 0.760784
0.768627 0.945098 0.862745
0.866667 0.960784 0.858824
1.000000 0.933333 0.847059
1.000000 0.882353 0.800000
0.000000 0.235294 0.329412
0.000000 0.231373 0.313725
0.403922 0.250980 0.372549
0.733333 0.396078 0.345098
1.000000 0.560784 0.466667
0.278431 0.188235 0.298039
0.003922 0.349020 0.486275
0.631373 0.431373 0.607843
0.886275 0.545098 0.509804
0.996078 0.749020 0.713725
0.333333 0.407843 0.423529
0.239216 0.584314 0.623529
0.568627 0.545098 0.545098
0.890196 0.580392 0.521569
1.000000 0.701961 0.639216
0.576471 0.733333 0.498039
0.556863 0.835294 0.772549
0.584314 0.756863 0.650980
0.905882 0.756863 0.603922
0.996078 0.835294 0.717647
0.780392 0.941176 0.878431
0.823529 0.964706 0.949020
0.835294 0.941176 0.905882
0.960784 0.952941 0.905882
0.996078 0.917647 0.890196
0.003922 0.454902 0.678431
0.000000 0.450980 0.690196
0.282353 0.450980 0.721569
0.800000 0.631373 0.807843
0.956863 0.835294 0.898039
0.000000 0.364706 0.607843
0.000000 0.537255 0.788235
0.435294 0.572549 0.823529
0.878431 0.737255 0.886275
0.976471 0.905882 0.968627
0.007843 0.576471 0.721569
0.003922 0.690196 0.843137
0.466667 0.686275 0.823529
0.847059 0.800000 0.878431
0.988235 0.905882 0.933333
0.541176 0.745098 0.788235
0.384314 0.823529 0.870588
0.576471 0.811765 0.854902
0.721569 0.752941 0.764706
0.898039 0.843137 0.839216
0.796078 0.945098 0.956863
0.784314 0.960784 0.980392
0.823529 0.956863 0.964706
0.898039 0.941176 0.949020
0.984314 0.937255 0.945098
0.003922 0.643137 0.905882
0.000000 0.654902 0.901961
0.505882 0.741176 0.929412
0.788235 0.823529 0.945098
0.937255 0.921569 0.988235
0.168627 0.654902 0.890196
0.000000 0.709804 0.956863
0.552941 0.780392 0.956863
0.815686 0.843137 0.956863
0.913725 0.925490 0.992157
0.003922 0.662745 0.874510
0.000000 0.729412 0.949020
0.462745 0.788235 0.952941
0.807843 0.862745 0.968627
0.937255 0.933333 0.988235
0.364706 0.807843 0.925490
0.000000 0.831373 0.956863
0.427451 0.839216 0.952941
0.713725 0.854902 0.941176
0.890196 0.941176 0.976471
0.650980 0.937255 0.964706
0.635294 0.960784 0.984314
0.729412 0.960784 0.984314
0.862745 0.952941 0.972549
0.945098 0.964706 0.976471
